; generated by PrusaSlicer 2.7.1+win64 on 2023-12-29 at 09:38:13 UTC

; 

; external perimeters extrusion width = 0.42mm
; perimeters extrusion width = 0.44mm
; infill extrusion width = 0.44mm
; solid infill extrusion width = 0.44mm
; top infill extrusion width = 0.40mm
; support material extrusion width = 0.36mm
; first layer extrusion width = 0.42mm

; external perimeters extrusion width = 0.42mm
; perimeters extrusion width = 0.44mm
; infill extrusion width = 0.44mm
; solid infill extrusion width = 0.44mm
; top infill extrusion width = 0.40mm
; support material extrusion width = 0.36mm
; first layer extrusion width = 0.42mm

; external perimeters extrusion width = 0.42mm
; perimeters extrusion width = 0.44mm
; infill extrusion width = 0.44mm
; solid infill extrusion width = 0.44mm
; top infill extrusion width = 0.40mm
; support material extrusion width = 0.36mm
; first layer extrusion width = 0.42mm

; external perimeters extrusion width = 0.42mm
; perimeters extrusion width = 0.44mm
; infill extrusion width = 0.44mm
; solid infill extrusion width = 0.44mm
; top infill extrusion width = 0.40mm
; support material extrusion width = 0.36mm
; first layer extrusion width = 0.42mm

; external perimeters extrusion width = 0.42mm
; perimeters extrusion width = 0.44mm
; infill extrusion width = 0.44mm
; solid infill extrusion width = 0.44mm
; top infill extrusion width = 0.40mm
; support material extrusion width = 0.36mm
; first layer extrusion width = 0.42mm

M201 X500 Y500 Z100 E5000 ; sets maximum accelerations, mm/sec^2
M203 X500 Y500 Z10 E60 ; sets maximum feedrates, mm / sec
M204 S500 T1000 ; sets acceleration (S) and retract acceleration (R), mm/sec^2
M205 X8.00 Y8.00 Z0.40 E5.00 ; sets the jerk limits, mm/sec
M205 S0 T0 ; sets the minimum extruding and travel feed rate, mm/sec
;TYPE:Custom
G90 ; use absolute coordinates
M83 ; extruder relative mode
M104 S150 ; set temporary nozzle temp to prevent oozing during homing
M140 S70 ; set final bed temp
G4 S30 ; allow partial nozzle warmup
G28 ; home all axis and restore leveling
G1 Z50 F240
G1 X2.0 Y10 F3000
M104 S230 ; set final nozzle temp
M190 S70 ; wait for bed temp to stabilize
M109 S230 ; wait for nozzle temp to stabilize
G1 Z0.28 F240
G92 E0
G1 X2.0 Y140 E10 F1500 ; prime the nozzle
G1 X2.3 Y140 F5000
G92 E0
G1 X2.3 Y10 E10 F1200 ; prime the nozzle
G92 E0
G21 ; set units to millimeters
G90 ; use absolute coordinates
M83 ; use relative distances for extrusion
; Filament gcode
M107
;LAYER_CHANGE
;Z:0.2
;HEIGHT:0.2
;BEFORE_LAYER_CHANGE
G92 E0
;0.2


G1 E-1 F2400
G1 Z.2 F9000
;AFTER_LAYER_CHANGE
;0.2
G1 X41.081 Y65.796
G1 Z.2
G1 E1 F2400
;TYPE:Skirt/Brim
;WIDTH:0.42
G1 F1200
G1 X42.648 Y64.884 E.05287
G1 X43.267 Y64.62 E.01962
G1 X45.009 Y64.117 E.05287
G1 X46.66 Y63.93 E.04845
G1 X67.604 Y64.017 E.61072
G1 X84.528 Y65.988 E.49683
G1 X105.211 Y69.378 E.61115
G1 X133.61 Y78.286 E.86788
G1 X135.099 Y78.997 E.04811
G1 X136.381 Y80.055 E.04847
G1 X174.115 Y118.716 E1.5753
G1 X174.781 Y119.486 E.02969
G1 X175.692 Y120.913 E.04937
G1 X176.165 Y122.037 E.03556
G1 X176.364 Y122.797 E.02291
G1 X176.635 Y124.794 E.05877
G1 X176.635 Y129.287 E.13101
G1 X176.572 Y130.037 E.02195
G1 X176.161 Y132.044 E.05974
G1 X175.395 Y133.685 E.05281
G1 X174.79 Y134.579 E.03148
G1 X174.178 Y135.278 E.02709
G1 X172.818 Y136.431 E.05199
G1 X171.584 Y137.131 E.04137
G1 X170.439 Y137.575 E.03581
G1 X169.687 Y137.769 E.02265
G1 X135.172 Y142.064 E1.0142
G1 X122.317 Y142.037 E.37485
G1 X88.352 Y137.907 E.9977
G1 X86.817 Y137.464 E.04659
G1 X85.596 Y136.86 E.03972
G1 X42.224 Y112.787 E1.44645
G1 X40.812 Y111.728 E.05147
G1 X40.326 Y111.263 E.01961
G1 X39.179 Y109.859 E.05287
G1 X38.593 Y108.879 E.0333
G1 X37.9 Y107.203 E.05288
G1 X37.721 Y106.555 E.0196
G1 X37.458 Y104.845 E.05045
G1 X36.909 Y80.447 E.71161
G1 X36.834 Y73.475 E.20331
G1 X37.098 Y71.681 E.05288
G1 X37.277 Y71.032 E.01963
G1 X37.97 Y69.357 E.05286
G1 X38.951 Y67.833 E.05285
G1 X39.702 Y66.973 E.03329
G1 X41.036 Y65.835 E.05113
G1 X41.28 Y66.122 F9000
G1 F1200
G1 X41.316 Y66.091 E.00139
G1 X42.827 Y65.216 E.05091
G1 X43.384 Y64.978 E.01766
G1 X45.06 Y64.491 E.05089
G1 X46.659 Y64.307 E.04693
G1 X67.603 Y64.395 E.61072
G1 X84.482 Y66.363 E.49552
G1 X105.15 Y69.75 E.61071
G1 X133.497 Y78.646 E.86633
G1 X134.914 Y79.326 E.04583
G1 X136.112 Y80.318 E.04535
G1 X173.845 Y118.98 E1.5753
G1 X174.538 Y119.783 E.03093
G1 X175.352 Y121.077 E.04458
G1 X175.836 Y122.238 E.03668
G1 X175.991 Y122.855 E.01855
G1 X176.258 Y124.797 E.05716
G1 X176.258 Y129.281 E.13075
G1 X176.199 Y129.99 E.02075
G1 X175.805 Y131.921 E.05747
G1 X175.079 Y133.479 E.05012
G1 X174.496 Y134.343 E.03039
G1 X173.896 Y135.027 E.02653
G1 X172.656 Y136.087 E.04757
G1 X171.478 Y136.767 E.03966
G1 X170.343 Y137.211 E.03554
G1 X169.593 Y137.403 E.02257
G1 X135.172 Y141.687 E1.01144
G1 X122.363 Y141.662 E.3735
G1 X88.397 Y137.533 E.99772
G1 X86.942 Y137.108 E.0442
G1 X85.775 Y136.528 E.038
G1 X42.407 Y112.458 E1.44631
G1 X41.047 Y111.433 E.04966
G1 X40.61 Y111.015 E.01763
G1 X39.503 Y109.665 E.05091
G1 X38.654 Y108.14 E.0509
G1 X38.253 Y107.071 E.03329
G1 X38.092 Y106.487 E.01766
G1 X37.835 Y104.837 E.04869
G1 X37.286 Y80.438 E.71164
G1 X37.211 Y73.475 E.20305
G1 X37.469 Y71.749 E.05089
G1 X37.63 Y71.165 E.01766
G1 X38.294 Y69.551 E.05089
G1 X39.235 Y68.081 E.05089
G1 X39.986 Y67.221 E.03329
G1 X41.234 Y66.161 E.04775
;WIPE_START
G1 F7200
G1 X41.28 Y66.122 E-.0191
G1 X41.316 Y66.091 E-.01504
G1 X42.827 Y65.216 E-.55292
G1 X43.384 Y64.978 E-.19181
G1 X44.054 Y64.783 E-.22113
;WIPE_END
G1 X88.093 Y97.64 F9000
G1 E1 F2400
;TYPE:Support material interface
;WIDTH:0.36
G1 F1200
G1 X88.093 Y97.418 E.00544
G1 X87.712 Y97.418 E.00934
G1 X88.093 Y97.798 E.01319
G1 X88.093 Y98.529 E.01792
G1 X86.981 Y97.418 E.03854
G1 X86.25 Y97.418 E.01792
G1 X88.093 Y99.261 E.06391
G1 X88.093 Y99.992 E.01792
G1 X85.518 Y97.418 E.08927
G1 X85.283 Y97.418 E.00576
G1 X85.283 Y97.914 E.01216
G1 X88.093 Y100.723 E.09742
G1 X88.093 Y101.454 E.01792
G1 X85.283 Y98.645 E.09742
G1 X85.283 Y99.377 E.01795
G1 X88.093 Y102.186 E.09742
G1 X88.093 Y102.917 E.01792
G1 X85.283 Y100.108 E.09742
G1 X85.283 Y100.839 E.01792
G1 X88.093 Y103.648 E.09742
G1 X88.093 Y104.379 E.01792
G1 X85.283 Y101.57 E.09742
G1 X85.283 Y102.302 E.01795
G1 X88.093 Y105.111 E.09742
G1 X88.093 Y105.842 E.01792
G1 X85.283 Y103.033 E.09742
G1 X85.283 Y103.764 E.01792
G1 X87.92 Y106.401 E.09144
G1 X87.189 Y106.401 E.01792
G1 X85.283 Y104.495 E.06609
G1 X85.283 Y105.227 E.01795
G1 X86.457 Y106.401 E.04071
G1 X85.726 Y106.401 E.01792
G1 X85.283 Y105.958 E.01536
G1 X85.283 Y106.401 E.01086
G1 X85.568 Y106.401 E.00699
;WIPE_START
G1 F7200
G1 X85.283 Y106.401 E-.09025
G1 X85.283 Y105.958 E-.14028
G1 X85.726 Y106.401 E-.19839
G1 X86.457 Y106.401 E-.23148
G1 X85.699 Y105.642 E-.3396
;WIPE_END
G1 X88.525 Y106.069 F9000
G1 E1 F2400
;TYPE:Support material
;WIDTH:0.42
G1 F1200
G1 X88.461 Y106.069 E.00187
G1 X88.461 Y103.769 E.06707
G1 X89.103 Y103.769 E.01872
G1 X88.539 Y106.014 E.0675
;WIPE_START
G1 F7200
G1 X89.103 Y103.769 E-.73301
G1 X88.461 Y103.769 E-.2033
G1 X88.461 Y103.97 E-.06369
;WIPE_END
G1 X47.676 Y92.104 F9000
G1 E1 F2400
G1 F1200
G1 X48.333 Y92.134 E.01918
G1 X49.446 Y92.388 E.03329
G1 X50.331 Y92.766 E.02806
G1 X50.876 Y92.623 E.01643
G1 X51.996 Y92.504 E.03284
G1 X53.064 Y92.509 E.03114
G1 X54.26 Y92.732 E.03548
G1 X54.912 Y92.52 E.01999
G1 X56.044 Y92.366 E.03331
G1 X57.184 Y92.418 E.03328
G1 X58.634 Y92.816 E.04385
G1 X59.983 Y92.777 E.03935
G1 X61.105 Y92.987 E.03329
G1 X61.524 Y93.149 E.0131
G1 X62.372 Y93.083 E.0248
G1 X63.786 Y93.307 E.04175
G1 X64.476 Y93.184 E.02044
G1 X64.91 Y93.198 E.01266
G1 X65.907 Y92.616 E.03366
G1 X66.997 Y92.269 E.03336
G1 X68.137 Y92.17 E.03337
G1 X69.245 Y92.32 E.0326
G1 X70.037 Y92.606 E.02455
G1 X70.409 Y92.526 E.0111
G1 X71.559 Y92.556 E.03354
G1 X72.804 Y92.932 E.03792
G1 X73.849 Y92.83 E.03062
G1 X74.993 Y93.015 E.03379
G1 X75.613 Y93.289 E.01977
G1 X77.014 Y93.184 E.04097
G1 X78.196 Y93.494 E.03563
G1 X78.461 Y93.656 E.00906
G1 X79.547 Y93.557 E.0318
G1 X80.343 Y93.677 E.02347
G1 X81.066 Y93.993 E.02301
G1 X81.421 Y93.922 E.01056
G1 X82.491 Y94.074 E.03151
G1 X83.763 Y94.074 E.03709
G1 X84.032 Y94.204 E.00871
G1 X84.621 Y94.113 E.01738
G1 X86.29 Y94.663 E.05124
G1 X87.363 Y95.84 E.04644
G1 X87.667 Y97.049 E.03635
G1 X84.915 Y97.049 E.08025
G1 X84.915 Y106.769 E.28343
G1 X88.349 Y106.769 E.10013
G1 X88.045 Y107.978 E.03635
G1 X86.972 Y109.156 E.04646
G1 X85.303 Y109.705 E.05123
G1 X84.714 Y109.614 E.01738
G1 X84.445 Y109.744 E.00871
G1 X82.95 Y109.744 E.04359
G1 X82.705 Y109.871 E.00805
G1 X81.616 Y109.988 E.03194
G1 X81.326 Y109.934 E.0086
G1 X80.73 Y110.002 E.01749
G1 X80.488 Y109.885 E.00784
G1 X80.028 Y110.132 E.01522
G1 X78.85 Y110.375 E.03507
G1 X77.683 Y110.256 E.03421
G1 X76.696 Y110.607 E.03055
G1 X75.512 Y110.688 E.03461
G1 X74.927 Y110.566 E.01743
G1 X74.523 Y110.756 E.01302
G1 X73.352 Y111.01 E.03494
G1 X72.103 Y110.936 E.03648
G1 X71.093 Y111.26 E.03093
G1 X70 Y111.348 E.03197
G1 X69.3 Y111.261 E.02057
G1 X68.798 Y111.471 E.01587
G1 X67.675 Y111.678 E.0333
G1 X66.535 Y111.642 E.03326
G1 X66.124 Y111.539 E.01236
G1 X65.505 Y111.896 E.02084
G1 X64.424 Y112.271 E.03336
G1 X63.291 Y112.433 E.03337
G1 X62.148 Y112.379 E.03337
G1 X61.035 Y112.109 E.0334
G1 X60.52 Y111.874 E.01651
G1 X59.375 Y112.386 E.03657
G1 X58.262 Y112.64 E.03329
G1 X57.121 Y112.691 E.0333
G1 X55.99 Y112.538 E.03328
G1 X54.585 Y112.013 E.04374
G1 X53.699 Y112.392 E.0281
G1 X52.586 Y112.646 E.03329
G1 X51.445 Y112.697 E.0333
G1 X50.314 Y112.544 E.03328
G1 X49.228 Y112.191 E.0333
G1 X48.223 Y111.65 E.03328
G1 X47.33 Y110.938 E.0333
G1 X46.956 Y110.51 E.01657
G1 X46.136 Y110.399 E.02413
G1 X45.051 Y110.046 E.03327
G1 X44.045 Y109.505 E.03331
G1 X43.153 Y108.793 E.03328
G1 X42.402 Y107.933 E.03329
G1 X41.816 Y106.953 E.0333
G1 X41.415 Y105.884 E.03329
G1 X41.211 Y104.761 E.03328
G1 X41.211 Y103.619 E.0333
G1 X41.415 Y102.496 E.03328
G1 X41.838 Y101.369 E.0351
G1 X41.34 Y100.138 E.03872
G1 X41.136 Y99.015 E.03328
G1 X41.136 Y97.873 E.0333
G1 X41.34 Y96.75 E.03328
G1 X41.741 Y95.681 E.03329
G1 X42.327 Y94.701 E.0333
G1 X43.078 Y93.841 E.03329
G1 X43.97 Y93.129 E.03328
G1 X44.976 Y92.588 E.03331
G1 X46.062 Y92.236 E.03329
G1 X47.193 Y92.082 E.03328
G1 X47.62 Y92.102 E.01246
G1 X87.741 Y108.061 F9000
G1 F1200
G1 X87.741 Y107.109 E.02776
G1 X87.322 Y107.109 E.01222
G1 X87.322 Y108.269 E.03383
G1 X86.903 Y108.729 E.01814
G1 X86.903 Y107.109 E.04724
G1 X86.484 Y107.109 E.01222
G1 X86.484 Y108.978 E.0545
G1 X86.065 Y109.137 E.01307
G1 X86.065 Y107.109 E.05914
G1 X85.646 Y107.109 E.01222
G1 X85.646 Y109.262 E.06278
G1 X85.227 Y109.35 E.01248
G1 X85.227 Y107.109 E.06535
G1 X84.808 Y107.109 E.01222
G1 X84.808 Y109.286 E.06348
G1 X84.662 Y109.263 E.00431
G1 X84.389 Y109.395 E.00884
G1 X84.389 Y94.492 E.43456
G1 X83.97 Y94.55 E.01233
G1 X83.97 Y109.405 E.43316
G1 X83.551 Y109.405 E.01222
G1 X83.551 Y94.413 E.43716
G1 X83.132 Y94.413 E.01222
G1 X83.132 Y109.405 E.43716
G1 X82.713 Y109.485 E.01244
G1 X82.713 Y94.413 E.43949
G1 X82.294 Y94.381 E.01225
G1 X82.294 Y109.574 E.44302
G1 X81.875 Y109.619 E.01229
G1 X81.875 Y94.311 E.44637
G1 X81.456 Y94.267 E.01229
G1 X81.456 Y109.613 E.44748
G1 X81.037 Y109.626 E.01222
G1 X81.037 Y94.345 E.44559
G1 X80.618 Y94.167 E.01327
G1 X80.618 Y109.571 E.44917
G1 X80.48 Y109.505 E.00446
G1 X80.199 Y109.655 E.00929
G1 X80.199 Y93.998 E.45655
G1 X79.78 Y93.935 E.01236
G1 X79.78 Y109.837 E.46369
G1 X79.361 Y109.923 E.01247
G1 X79.361 Y93.899 E.46725
G1 X78.942 Y93.913 E.01222
G1 X78.942 Y110.01 E.46938
G1 X78.523 Y110.001 E.01222
G1 X78.523 Y93.989 E.4669
G1 X78.394 Y94.013 E.00383
G1 X78.104 Y93.835 E.00992
G1 X78.104 Y109.958 E.47014
G1 X77.685 Y109.915 E.01228
G1 X77.685 Y93.711 E.4725
G1 X77.266 Y93.601 E.01263
G1 X77.266 Y110.044 E.47947
G1 X76.847 Y110.193 E.01297
G1 X76.847 Y93.53 E.48588
G1 X76.428 Y93.545 E.01223
G1 X76.428 Y110.285 E.48813
G1 X76.009 Y110.313 E.01225
G1 X76.009 Y93.56 E.48851
G1 X75.59 Y93.65 E.0125
G1 X75.59 Y110.342 E.48673
G1 X75.171 Y110.27 E.0124
G1 X75.171 Y93.465 E.49003
G1 X74.895 Y93.343 E.0088
G1 X74.752 Y93.32 E.00422
G1 X74.752 Y110.273 E.49434
G1 X74.409 Y110.435 E.01106
G1 X74.333 Y110.453 E.00228
G1 X74.333 Y93.252 E.50157
G1 X73.914 Y93.185 E.01237
G1 X73.914 Y110.557 E.50656
G1 X73.495 Y110.638 E.01244
G1 X73.495 Y93.206 E.50831
G1 X73.076 Y93.246 E.01227
G1 X73.076 Y110.662 E.50784
G1 X72.657 Y110.648 E.01222
G1 X72.657 Y93.238 E.50767
G1 X72.238 Y93.09 E.01296
G1 X72.238 Y110.622 E.51122
G1 X72.098 Y110.581 E.00425
G1 X71.819 Y110.671 E.00855
G1 X71.819 Y92.977 E.51595
G1 X71.51 Y92.894 E.00933
G1 X71.4 Y92.891 E.00321
G1 X71.4 Y110.805 E.52236
G1 X71.026 Y110.925 E.01145
G1 X70.981 Y92.88 E.52618
G1 X70.562 Y92.869 E.01222
G1 X70.562 Y110.962 E.52758
G1 X70.144 Y110.996 E.01223
G1 X70.144 Y92.93 E.5268
G1 X70.007 Y92.96 E.00409
G1 X69.725 Y92.847 E.00886
G1 X69.725 Y110.976 E.52863
G1 X69.306 Y110.917 E.01234
G1 X69.306 Y92.7 E.5312
G1 X69.165 Y92.651 E.00435
G1 X68.887 Y92.614 E.00818
G1 X68.887 Y111.066 E.53805
G1 X68.7 Y111.144 E.00591
G1 X68.468 Y111.187 E.00688
G1 X68.468 Y92.557 E.54324
G1 X68.049 Y92.518 E.01227
G1 X68.049 Y111.264 E.54662
G1 X67.63 Y111.337 E.0124
G1 X67.63 Y92.555 E.54767
G1 X67.211 Y92.591 E.01226
G1 X67.211 Y111.323 E.54622
G1 X66.792 Y111.31 E.01222
G1 X66.792 Y92.69 E.54295
G1 X66.373 Y92.824 E.01283
G1 X66.373 Y111.251 E.53732
G1 X66.073 Y111.176 E.00902
G1 X65.954 Y111.245 E.00401
G1 X65.954 Y92.981 E.53257
G1 X65.535 Y93.226 E.01415
G1 X65.535 Y111.487 E.53248
G1 X65.364 Y111.586 E.00576
G1 X65.116 Y111.672 E.00765
G1 X65.116 Y93.471 E.53073
G1 X64.997 Y93.54 E.00401
G1 X64.697 Y93.53 E.00875
G1 X64.697 Y111.817 E.53324
G1 X64.278 Y111.949 E.01281
G1 X64.278 Y93.564 E.5361
G1 X63.859 Y93.638 E.01241
G1 X63.859 Y112.009 E.53569
G1 X63.44 Y112.069 E.01234
G1 X63.44 Y93.552 E.53995
G1 X63.021 Y93.5 E.01231
G1 X63.021 Y112.081 E.54181
G1 X62.602 Y112.061 E.01223
G1 X62.602 Y93.451 E.54266
G1 X62.183 Y93.438 E.01222
G1 X62.183 Y112.038 E.54237
G1 X61.764 Y111.937 E.01257
G1 X61.764 Y93.471 E.53846
G1 X61.345 Y93.444 E.01224
G1 X61.345 Y111.835 E.53627
G1 X60.926 Y111.686 E.01297
G1 X60.926 Y93.299 E.53616
G1 X60.507 Y93.22 E.01243
G1 X60.507 Y111.495 E.53289
G1 X60.263 Y111.637 E.00823
G1 X60.088 Y111.712 E.00555
G1 X60.088 Y93.142 E.54149
G1 X59.669 Y93.116 E.01224
G1 X59.669 Y111.891 E.54747
G1 X59.25 Y112.066 E.01324
G1 X59.25 Y93.116 E.55257
G1 X58.831 Y93.123 E.01222
G1 X58.831 Y112.162 E.55517
G1 X58.412 Y112.257 E.01253
G1 X58.412 Y93.09 E.5589
G1 X57.993 Y92.95 E.01288
G1 X57.993 Y112.312 E.56459
G1 X57.574 Y112.331 E.01223
G1 X57.574 Y92.855 E.56791
G1 X57.155 Y92.759 E.01253
G1 X57.155 Y112.35 E.57126
G1 X56.736 Y112.296 E.01232
G1 X56.736 Y92.737 E.57033
G1 X56.317 Y92.718 E.01223
G1 X56.317 Y112.24 E.56925
G1 X55.898 Y112.151 E.01249
G1 X55.898 Y92.728 E.56636
G1 X55.479 Y92.785 E.01233
G1 X55.479 Y112.015 E.56074
G1 X55.06 Y111.879 E.01285
G1 X55.06 Y92.842 E.55511
G1 X54.641 Y92.964 E.01273
G1 X54.641 Y111.658 E.54511
G1 X54.222 Y111.799 E.01289
G1 X54.222 Y93.07 E.54613
G1 X53.803 Y92.992 E.01243
G1 X53.803 Y111.978 E.55362
G1 X53.384 Y112.115 E.01285
G1 X53.384 Y92.914 E.55989
G1 X52.965 Y92.848 E.01237
G1 X52.965 Y112.211 E.56462
G1 X52.546 Y112.307 E.01253
G1 X52.546 Y92.846 E.56747
G1 X52.127 Y92.844 E.01222
G1 X52.127 Y112.327 E.56811
G1 X51.709 Y112.345 E.0122
G1 X51.709 Y92.875 E.56774
G1 X51.29 Y92.92 E.01229
G1 X51.29 Y112.333 E.56607
G1 X50.871 Y112.277 E.01233
G1 X50.871 Y92.975 E.56284
G1 X50.452 Y93.085 E.01263
G1 X50.452 Y112.22 E.55797
G1 X50.033 Y112.095 E.01275
G1 X50.033 Y93.007 E.5566
G1 X49.614 Y92.828 E.01329
G1 X49.614 Y111.959 E.55785
G1 X49.195 Y111.788 E.0132
G1 X49.195 Y92.678 E.55724
G1 X48.776 Y92.583 E.01253
G1 X48.776 Y111.562 E.55342
G1 X48.357 Y111.323 E.01407
G1 X48.357 Y92.487 E.54925
G1 X47.938 Y92.456 E.01225
G1 X47.938 Y110.989 E.54041
G1 X47.519 Y110.638 E.01594
G1 X47.519 Y92.437 E.53073
G1 X47.1 Y92.437 E.01222
G1 X47.1 Y110.187 E.51758
G1 X46.681 Y110.13 E.01233
