; generated by PrusaSlicer 2.7.1+win64 on 2023-12-27 at 08:25:52 UTC

; 

; external perimeters extrusion width = 0.42mm
; perimeters extrusion width = 0.44mm
; infill extrusion width = 0.44mm
; solid infill extrusion width = 0.44mm
; top infill extrusion width = 0.40mm
; support material extrusion width = 0.36mm
; first layer extrusion width = 0.42mm

M201 X500 Y500 Z100 E5000 ; sets maximum accelerations, mm/sec^2
M203 X500 Y500 Z10 E60 ; sets maximum feedrates, mm / sec
M204 S500 T1000 ; sets acceleration (S) and retract acceleration (R), mm/sec^2
M205 X8.00 Y8.00 Z0.40 E5.00 ; sets the jerk limits, mm/sec
M205 S0 T0 ; sets the minimum extruding and travel feed rate, mm/sec
;TYPE:Custom
G90 ; use absolute coordinates
M83 ; extruder relative mode
M104 S150 ; set temporary nozzle temp to prevent oozing during homing
M140 S70 ; set final bed temp
G4 S30 ; allow partial nozzle warmup
G28 ; home all axis and restore leveling
G1 Z50 F240
G1 X2.0 Y10 F3000
M104 S235 ; set final nozzle temp
M190 S70 ; wait for bed temp to stabilize
M109 S235 ; wait for nozzle temp to stabilize
G1 Z0.28 F240
G92 E0
G1 X2.0 Y140 E10 F1500 ; prime the nozzle
G1 X2.3 Y140 F5000
G92 E0
G1 X2.3 Y10 E10 F1200 ; prime the nozzle
G92 E0
G21 ; set units to millimeters
G90 ; use absolute coordinates
M83 ; use relative distances for extrusion
; Filament gcode
M107
;LAYER_CHANGE
;Z:0.2
;HEIGHT:0.2
;BEFORE_LAYER_CHANGE
G92 E0
;0.2


G1 E-1 F2400
G1 Z.2 F9000
;AFTER_LAYER_CHANGE
;0.2
G1 X105.32 Y99.043
G1 Z.2
G1 E1 F2400
M204 S500
;TYPE:Skirt/Brim
;WIDTH:0.42
G1 F1200
G1 X105.83 Y98.586 E.01997
G1 X106.755 Y97.959 E.03259
G1 X108.265 Y97.342 E.04756
G1 X109.345 Y97.144 E.03202
G1 X110.958 Y97.181 E.04705
G1 X112.021 Y97.426 E.03181
G1 X112.685 Y97.677 E.0207
G1 X113.508 Y98.113 E.02716
G1 X114.384 Y98.763 E.03181
G1 X114.874 Y99.241 E.01996
G1 X115.327 Y99.786 E.02066
G1 X115.83 Y100.571 E.02719
G1 X116.427 Y102.072 E.0471
G1 X118.852 Y111.464 E.28285
G1 X119.069 Y112.606 E.0339
G1 X119.14 Y113.931 E.03869
G1 X119.07 Y114.886 E.02792
G1 X118.892 Y115.87 E.02916
G1 X118.376 Y117.41 E.04736
G1 X117.562 Y118.886 E.04915
G1 X116.534 Y120.143 E.04735
G1 X115.784 Y120.828 E.02962
G1 X115.007 Y121.398 E.0281
G1 X113.523 Y122.184 E.04897
G1 X111.982 Y122.673 E.04714
G1 X110.974 Y122.838 E.02978
G1 X110.018 Y122.89 E.02792
G1 X108.345 Y122.738 E.04898
G1 X107.413 Y122.516 E.02794
G1 X106.458 Y122.175 E.02957
G1 X105.023 Y121.415 E.04735
G1 X104.204 Y120.815 E.0296
G1 X103.492 Y120.165 E.02811
G1 X102.817 Y119.399 E.02977
G1 X102.272 Y118.628 E.02753
G1 X101.51 Y117.131 E.04898
G1 X101.199 Y116.21 E.02835
G1 X100.985 Y115.241 E.02894
G1 X100.863 Y113.601 E.04795
G1 X100.937 Y112.582 E.02979
G1 X101.109 Y111.64 E.02792
G1 X103.545 Y102.204 E.28417
G1 X103.83 Y101.302 E.02758
G1 X104.311 Y100.332 E.03157
G1 X104.716 Y99.732 E.02111
G1 X105.281 Y99.088 E.02498
G1 X105.578 Y99.321 F9000
G1 F1200
G1 X105.591 Y99.305 E.0006
G1 X106.073 Y98.874 E.01885
G1 X106.933 Y98.292 E.03028
G1 X108.37 Y97.704 E.04527
G1 X109.375 Y97.519 E.0298
G1 X110.911 Y97.555 E.0448
G1 X111.899 Y97.783 E.02957
G1 X113.314 Y98.436 E.04544
G1 X114.129 Y99.042 E.02961
G1 X114.592 Y99.492 E.01883
G1 X115.503 Y100.759 E.0455
G1 X116.062 Y102.167 E.04417
G1 X118.487 Y111.558 E.28282
G1 X118.696 Y112.66 E.03271
G1 X118.763 Y113.931 E.03711
G1 X118.697 Y114.832 E.02634
G1 X118.525 Y115.783 E.02818
G1 X118.034 Y117.252 E.04516
G1 X117.246 Y118.68 E.04756
G1 X116.695 Y119.406 E.02658
G1 X116.017 Y120.122 E.02875
G1 X114.806 Y121.078 E.04499
G1 X113.371 Y121.839 E.04736
G1 X111.908 Y122.303 E.04475
G1 X110.927 Y122.464 E.02899
G1 X110.024 Y122.513 E.02637
G1 X108.406 Y122.366 E.04737
G1 X107.527 Y122.156 E.02635
G1 X106.598 Y121.825 E.02876
G1 X105.235 Y121.103 E.04498
G1 X104.437 Y120.519 E.02883
G1 X103.766 Y119.906 E.0265
G1 X103.108 Y119.16 E.02901
G1 X102.595 Y118.433 E.02595
G1 X101.858 Y116.985 E.04738
G1 X101.564 Y116.116 E.02675
G1 X101.356 Y115.173 E.02816
G1 X101.24 Y113.614 E.04559
G1 X101.312 Y112.623 E.02897
G1 X101.474 Y111.735 E.02632
G1 X103.91 Y102.298 E.2842
G1 X104.183 Y101.436 E.02637
G1 X104.63 Y100.532 E.02941
G1 X105.541 Y99.368 E.0431
G1 X105.798 Y99.644 F9000
G1 F1200
G1 X106.316 Y99.162 E.02063
G1 X107.111 Y98.624 E.02799
G1 X108.476 Y98.066 E.043
G1 X109.405 Y97.895 E.02754
G1 X110.245 Y97.871 E.0245
G1 X111.778 Y98.14 E.04538
G1 X113.121 Y98.76 E.04313
G1 X114.31 Y99.742 E.04497
G1 X115.176 Y100.947 E.04327
G1 X115.697 Y102.261 E.04122
G1 X118.122 Y111.653 E.28285
G1 X118.323 Y112.715 E.03152
G1 X118.385 Y113.931 E.0355
G1 X118.156 Y115.702 E.05207
G1 X117.691 Y117.094 E.04279
G1 X116.93 Y118.474 E.04595
G1 X116.005 Y119.605 E.0426
G1 X114.808 Y120.622 E.0458
G1 X113.218 Y121.494 E.05288
G1 X111.833 Y121.933 E.04237
G1 X110.031 Y122.136 E.05288
G1 X108.467 Y121.994 E.04579
G1 X106.737 Y121.474 E.05268
G1 X105.446 Y120.791 E.04259
G1 X104.039 Y119.647 E.05288
G1 X102.918 Y118.238 E.0525
G1 X102.205 Y116.838 E.04581
G1 X101.727 Y115.104 E.05245
G1 X101.617 Y113.628 E.04316
G1 X101.839 Y111.829 E.05286
G1 X104.345 Y102.127 E.29219
G1 X104.78 Y101.037 E.03422
G1 X105.096 Y100.5 E.01817
G1 X105.689 Y99.746 E.02797
G1 X105.754 Y99.685 E.0026
;WIPE_START
G1 F7200
G1 X105.798 Y99.644 E-.01904
G1 X106.316 Y99.162 E-.22406
G1 X107.111 Y98.624 E-.30398
G1 X108.435 Y98.083 E-.45292
;WIPE_END
G1 X108.198 Y110.252 F9000
G1 E1 F2400
;TYPE:Perimeter
;WIDTH:0.432558
G1 F1200
G1 X108.691 Y110.039 E.01618
G1 X109.235 Y109.887 E.01702
;WIDTH:0.428371
G1 X110.066 Y109.811 E.02487
;WIDTH:0.432325
G1 X110.652 Y109.868 E.01773
G1 X111.231 Y110.01 E.01795
;WIDTH:0.426947
G1 X111.754 Y110.224 E.01678
;WIDTH:0.432606
G1 X112.222 Y110.5 E.01637
G1 X112.668 Y110.852 E.01712
;WIDTH:0.429472
G1 X113.058 Y111.265 E.01698
;WIDTH:0.432041
G1 X113.382 Y111.733 E.01713
G1 X113.637 Y112.24 E.01708
;WIDTH:0.431359
G1 X113.819 Y112.778 E.01706
;WIDTH:0.430624
G1 X113.917 Y113.338 E.01704
;WIDTH:0.432396
G1 X113.935 Y113.906 E.01712
G1 X113.869 Y114.49 E.0177
;WIDTH:0.427243
G1 X113.723 Y115.036 E.0168
;WIDTH:0.432584
G1 X113.505 Y115.543 E.01663
G1 X113.212 Y116.03 E.01713
;WIDTH:0.429722
G1 X112.852 Y116.469 E.01698
;WIDTH:0.431924
G1 X112.429 Y116.849 E.01711
G1 X111.958 Y117.166 E.01708
;WIDTH:0.431515
G1 X111.386 Y117.434 E.01898
;WIDTH:0.430414
G1 X110.904 Y117.582 E.01511
;WIDTH:0.432458
G1 X110.343 Y117.671 E.01711
G1 X109.764 Y117.681 E.01744
;WIDTH:0.427438
G1 X109.204 Y117.606 E.0168
;WIDTH:0.432544
G1 X108.664 Y117.452 E.01692
G1 X108.148 Y117.224 E.017
;WIDTH:0.42981
G1 X107.663 Y116.92 E.01713
;WIDTH:0.431799
G1 X107.233 Y116.549 E.01708
G1 X106.859 Y116.121 E.01709
;WIDTH:0.431665
G1 X106.524 Y115.594 E.01877
;WIDTH:0.430197
G1 X106.313 Y115.128 E.01532
;WIDTH:0.432429
G1 X106.155 Y114.586 E.017
G1 X106.072 Y114.019 E.01726
;WIDTH:0.42774
G1 X106.074 Y113.452 E.01687
;WIDTH:0.432511
G1 X106.161 Y112.89 E.01713
G1 X106.323 Y112.346 E.0171
;WIDTH:0.430194
G1 X106.562 Y111.83 E.01703
;WIDTH:0.431664
G1 X106.876 Y111.357 E.01707
;WIDTH:0.431799
G1 X107.253 Y110.932 E.01708
G1 X107.729 Y110.536 E.01862
;WIDTH:0.429965
G1 X108.145 Y110.28 E.01462
G1 X108.049 Y109.901 F9000
;WIDTH:0.419999
G1 F1200
G1 X108.548 Y109.68 E.01591
G1 X109.145 Y109.514 E.01807
G1 X109.705 Y109.443 E.01646
G1 X110.1 Y109.431 E.01152
G1 X110.741 Y109.495 E.01878
G1 X111.372 Y109.656 E.01899
G1 X111.944 Y109.895 E.01808
G1 X112.46 Y110.199 E.01746
G1 X112.945 Y110.59 E.01817
G1 X113.369 Y111.046 E.01816
G1 X113.723 Y111.559 E.01817
G1 X114 Y112.118 E.01819
G1 X114.211 Y112.808 E.02104
G1 X114.299 Y113.324 E.01526
G1 X114.32 Y113.906 E.01698
G1 X114.253 Y114.526 E.01818
G1 X114.097 Y115.13 E.01819
G1 X113.856 Y115.705 E.01818
G1 X113.534 Y116.239 E.01818
G1 X113.139 Y116.722 E.01819
G1 X112.678 Y117.142 E.01818
G1 X112.162 Y117.492 E.01818
G1 X111.601 Y117.764 E.01818
G1 X111.007 Y117.953 E.01818
G1 X110.391 Y118.054 E.0182
G1 X109.768 Y118.065 E.01817
G1 X109.153 Y117.987 E.01808
G1 X108.548 Y117.819 E.01831
G1 X107.981 Y117.57 E.01806
G1 X107.449 Y117.237 E.0183
G1 X106.974 Y116.833 E.01818
G1 X106.561 Y116.365 E.0182
G1 X106.221 Y115.843 E.01817
G1 X105.959 Y115.277 E.01819
G1 X105.782 Y114.683 E.01807
G1 X105.692 Y114.062 E.0183
G1 X105.692 Y113.438 E.0182
G1 X105.781 Y112.821 E.01818
G1 X105.959 Y112.223 E.01819
G1 X106.221 Y111.657 E.01819
G1 X106.561 Y111.135 E.01817
G1 X106.974 Y110.667 E.0182
G1 X107.449 Y110.263 E.01818
G1 X107.977 Y109.932 E.01817
G1 X107.994 Y109.925 E.00054
G1 X107.907 Y109.554 F9000
;TYPE:External perimeter
G1 F1200
G1 X107.927 Y109.542 E.00068
G1 X108.487 Y109.306 E.01772
G1 X109.139 Y109.135 E.01965
G1 X110.083 Y109.051 E.02764
G1 X110.762 Y109.112 E.01988
G1 X111.422 Y109.27 E.01979
G1 X112.052 Y109.521 E.01977
G1 X112.639 Y109.86 E.01977
G1 X113.171 Y110.28 E.01976
G1 X113.553 Y110.683 E.01619
G1 X113.78 Y110.975 E.01078
G1 X114.139 Y111.545 E.01964
G1 X114.357 Y111.997 E.01463
G1 X114.582 Y112.74 E.02264
G1 X114.676 Y113.311 E.01687
G1 X114.691 Y113.988 E.01975
G1 X114.603 Y114.679 E.02031
G1 X114.361 Y115.475 E.02426
G1 X114.157 Y115.935 E.01467
G1 X113.799 Y116.51 E.01975
G1 X113.237 Y117.143 E.02468
G1 X112.718 Y117.572 E.01963
G1 X112.289 Y117.85 E.01491
G1 X111.589 Y118.164 E.02237
G1 X110.941 Y118.346 E.01963
G1 X110.356 Y118.432 E.01724
G1 X109.669 Y118.433 E.02003
G1 X108.847 Y118.294 E.02431
G1 X108.357 Y118.148 E.01491
G1 X107.746 Y117.867 E.01961
G1 X107.05 Y117.393 E.02455
G1 X106.559 Y116.933 E.01962
G1 X106.223 Y116.536 E.01517
G1 X105.827 Y115.89 E.02209
G1 X105.563 Y115.27 E.01965
G1 X105.403 Y114.696 E.01738
G1 X105.314 Y114.019 E.01991
G1 X105.348 Y113.182 E.02443
G1 X105.432 Y112.674 E.01501
G1 X105.634 Y112.027 E.01976
G1 X106.011 Y111.289 E.02416
G1 X106.405 Y110.742 E.01966
G1 X106.761 Y110.352 E.0154
G1 X107.345 Y109.883 E.02184
G1 X107.855 Y109.584 E.01724
;WIPE_START
G1 F7200
G1 X107.907 Y109.554 E-.01901
G1 X107.927 Y109.542 E-.00739
G1 X108.487 Y109.306 E-.19244
G1 X109.139 Y109.135 E-.21345
G1 X110.083 Y109.051 E-.30011
G1 X110.762 Y109.112 E-.21588
G1 X110.921 Y109.15 E-.05172
;WIPE_END
G1 X107.357 Y116.102 F9000
G1 E1 F2400
;TYPE:Perimeter
;WIDTH:0.431799
G1 F1200
G1 X107.181 Y115.902 E.00801
;WIDTH:0.431665
G1 X106.892 Y115.476 E.01548
;WIDTH:0.430197
G1 X106.676 Y114.995 E.01579
;WIDTH:0.432429
G1 X106.539 Y114.518 E.01495
G1 X106.457 Y114.02 E.0152
;WIDTH:0.42774
G1 X106.457 Y113.48 E.01607
;WIDTH:0.432511
G1 X106.538 Y112.985 E.01511
G1 X106.676 Y112.505 E.01505
;WIDTH:0.430194
G1 X106.892 Y112.024 E.01579
;WIDTH:0.425899
G1 X106.938 Y111.948 E.00263
;WIDTH:0.423898
G1 X107.27 Y111.479 E.01693
G1 X107.793 Y110.968 E.02154
;WIDTH:0.429965
G1 X108.347 Y110.608 E.01977
;WIDTH:0.432558
G1 X108.807 Y110.41 E.01509
G1 X109.284 Y110.269 E.01499
;WIDTH:0.427867
G1 X109.805 Y110.201 E.01564
;WIDTH:0.427155
G1 X110.372 Y110.217 E.01685
;WIDTH:0.423225
G1 X110.901 Y110.313 E.01581
;WIDTH:0.428652
G1 X111.563 Y110.558 E.02106
;WIDTH:0.432606
G1 X111.993 Y110.815 E.0151
G1 X112.389 Y111.12 E.01506
;WIDTH:0.429472
G1 X112.758 Y111.503 E.0159
;WIDTH:0.432041
G1 X113.044 Y111.925 E.01534
G1 X113.271 Y112.371 E.01506
;WIDTH:0.431359
G1 X113.445 Y112.858 E.01553
;WIDTH:0.430624
G1 X113.532 Y113.375 E.01572
;WIDTH:0.432396
G1 X113.547 Y113.875 E.01507
G1 X113.501 Y114.377 E.01518
;WIDTH:0.428359
G1 X113.365 Y114.897 E.01602
;WIDTH:0.432584
G1 X113.164 Y115.356 E.0151
G1 X112.911 Y115.787 E.01506
;WIDTH:0.429722
G1 X112.579 Y116.2 E.01585
;WIDTH:0.431924
G1 X112.195 Y116.539 E.01541
G1 X111.782 Y116.82 E.01503
;WIDTH:0.431515
G1 X111.321 Y117.053 E.01552
;WIDTH:0.430414
G1 X110.818 Y117.205 E.01575
;WIDTH:0.432458
G1 X110.324 Y117.282 E.01506
G1 X109.822 Y117.3 E.01513
;WIDTH:0.428117
G1 X109.291 Y117.232 E.01595
;WIDTH:0.432544
G1 X108.807 Y117.09 E.0152
G1 X108.35 Y116.894 E.01498
;WIDTH:0.42981
G1 X107.896 Y116.617 E.01591
;WIDTH:0.431799
G1 X107.511 Y116.277 E.01545
G1 X107.397 Y116.147 E.0052
G1 X107.618 Y115.837 F9000
;WIDTH:0.419999
G1 F1200
G1 X107.268 Y115.364 E.01716
G1 X107.027 Y114.842 E.01677
G1 X106.85 Y114.134 E.02128
G1 X106.838 Y113.481 E.01904
G1 X106.96 Y112.84 E.01903
G1 X107.255 Y112.155 E.02175
G1 X107.579 Y111.698 E.01634
G1 X108.05 Y111.246 E.01904
G1 X108.544 Y110.935 E.01702
G1 X109.216 Y110.674 E.02102
G1 X109.851 Y110.579 E.01872
G1 X110.305 Y110.59 E.01324
G1 X110.833 Y110.686 E.01565
G1 X111.419 Y110.911 E.0183
G1 X111.99 Y111.275 E.01975
G1 X112.455 Y111.734 E.01905
G1 X112.815 Y112.279 E.01905
G1 X113.056 Y112.885 E.01902
G1 X113.154 Y113.434 E.01626
G1 X113.147 Y114.181 E.02178
G1 X112.996 Y114.8 E.01858
G1 X112.711 Y115.405 E.0195
G1 X112.315 Y115.924 E.01904
G1 X111.822 Y116.351 E.01902
G1 X111.251 Y116.668 E.01904
G1 X110.711 Y116.838 E.01651
G1 X109.978 Y116.925 E.02152
G1 X109.34 Y116.854 E.01872
G1 X108.709 Y116.65 E.01934
G1 X108.143 Y116.324 E.01905
G1 X107.656 Y115.889 E.01904
G1 X107.653 Y115.886 E.00012
G1 X107.93 Y115.629 F9000
;TYPE:External perimeter
G1 F1200
G1 X107.912 Y115.612 E.00072
G1 X107.575 Y115.146 E.01677
G1 X107.341 Y114.62 E.01679
G1 X107.219 Y114.057 E.0168
G1 X107.215 Y113.481 E.0168
G1 X107.329 Y112.917 E.01678
G1 X107.571 Y112.361 E.01768
G1 X107.886 Y111.917 E.01587
G1 X108.306 Y111.523 E.01679
G1 X108.738 Y111.259 E.01476
G1 X109.34 Y111.03 E.01878
G1 X109.9 Y110.953 E.01648
G1 X110.436 Y110.997 E.01568
G1 X110.803 Y111.068 E.0109
G1 X111.3 Y111.27 E.01564
G1 X111.78 Y111.588 E.01679
G1 X112.184 Y111.998 E.01678
G1 X112.497 Y112.481 E.01678
G1 X112.704 Y113.018 E.01678
G1 X112.796 Y113.587 E.01681
G1 X112.77 Y114.162 E.01678
G1 X112.632 Y114.704 E.01631
G1 X112.374 Y115.236 E.01724
G1 X112.02 Y115.69 E.01679
G1 X111.58 Y116.062 E.0168
G1 X111.074 Y116.336 E.01678
G1 X110.523 Y116.5 E.01676
G1 X109.949 Y116.549 E.0168
G1 X109.388 Y116.48 E.01648
G1 X108.833 Y116.293 E.01708
G1 X108.337 Y116 E.0168
G1 X107.974 Y115.669 E.01432
;WIPE_START
G1 F7200
G1 X107.93 Y115.629 E-.01883
G1 X107.912 Y115.612 E-.00784
G1 X107.575 Y115.146 E-.18211
G1 X107.341 Y114.62 E-.18231
G1 X107.219 Y114.057 E-.18242
G1 X107.215 Y113.481 E-.1824
G1 X107.329 Y112.917 E-.18221
G1 X107.407 Y112.738 E-.06188
;WIPE_END
G1 X109.965 Y105.183 F9000
G1 E1 F2400
;TYPE:Perimeter
G1 F1200
G1 X109.528 Y105.111 E.01291
G1 X109.142 Y104.896 E.01288
G1 X108.827 Y104.585 E.01291
G1 X108.636 Y104.186 E.0129
G1 X108.561 Y103.75 E.0129
G1 X108.636 Y103.314 E.0129
G1 X108.827 Y102.915 E.0129
G1 X109.142 Y102.604 E.01291
G1 X109.528 Y102.389 E.01288
G1 X109.94 Y102.308 E.01224
G1 X110.402 Y102.374 E.01361
G1 X110.806 Y102.555 E.01291
G1 X111.125 Y102.861 E.01289
G1 X111.35 Y103.242 E.0129
G1 X111.433 Y103.676 E.01288
G1 X111.44 Y103.824 E.00432
G1 X111.343 Y104.255 E.01288
G1 X111.131 Y104.644 E.01292
G1 X110.802 Y104.939 E.01289
G1 X110.404 Y105.133 E.01291
G1 X110.024 Y105.176 E.01115
G1 X109.984 Y105.557 F9000
G1 F1200
G1 X109.955 Y105.56 E.00085
G1 X109.586 Y105.512 E.01085
G1 X109.234 Y105.389 E.01087
G1 X108.915 Y105.198 E.01084
G1 X108.642 Y104.945 E.01085
G1 X108.426 Y104.642 E.01085
G1 X108.277 Y104.3 E.01088
G1 X108.201 Y103.936 E.01084
G1 X108.201 Y103.564 E.01085
G1 X108.277 Y103.2 E.01084
G1 X108.426 Y102.858 E.01088
G1 X108.642 Y102.555 E.01085
G1 X108.915 Y102.302 E.01085
G1 X109.234 Y102.111 E.01084
G1 X109.705 Y101.96 E.01442
G1 X110.019 Y101.936 E.00918
G1 X110.508 Y102.012 E.01443
G1 X110.852 Y102.152 E.01083
G1 X111.161 Y102.36 E.01086
G1 X111.421 Y102.627 E.01087
G1 X111.621 Y102.941 E.01086
G1 X111.752 Y103.289 E.01084
G1 X111.809 Y103.657 E.01086
G1 X111.79 Y104.029 E.01086
G1 X111.695 Y104.389 E.01086
G1 X111.529 Y104.721 E.01082
G1 X111.298 Y105.013 E.01086
G1 X111.012 Y105.252 E.01087
G1 X110.684 Y105.427 E.01084
G1 X110.326 Y105.531 E.01087
G1 X110.043 Y105.553 E.00828
G1 X110.023 Y105.938 F9000
;TYPE:External perimeter
G1 F1200
G1 X109.719 Y105.931 E.00887
G1 X109.279 Y105.827 E.01318
G1 X108.87 Y105.635 E.01317
G1 X108.508 Y105.364 E.01319
G1 X108.209 Y105.024 E.0132
G1 X107.987 Y104.631 E.01316
G1 X107.849 Y104.2 E.0132
G1 X107.803 Y103.75 E.01319
G1 X107.849 Y103.3 E.01319
G1 X107.987 Y102.869 E.0132
