; generated by PrusaSlicer 2.6.1+win64 on 2023-09-24 at 12:28:40 UTC

; 

; external perimeters extrusion width = 0.42mm
; perimeters extrusion width = 0.44mm
; infill extrusion width = 0.44mm
; solid infill extrusion width = 0.44mm
; top infill extrusion width = 0.40mm
; first layer extrusion width = 0.42mm

M201 X500 Y500 Z100 E5000 ; sets maximum accelerations, mm/sec^2
M203 X500 Y500 Z10 E60 ; sets maximum feedrates, mm / sec
M204 S500 T1000 ; sets acceleration (S) and retract acceleration (R), mm/sec^2
M205 X8.00 Y8.00 Z0.40 E5.00 ; sets the jerk limits, mm/sec
M205 S0 T0 ; sets the minimum extruding and travel feed rate, mm/sec
;TYPE:Custom
G90 ; use absolute coordinates
M83 ; extruder relative mode
M104 S150 ; set temporary nozzle temp to prevent oozing during homing
M140 S70 ; set final bed temp
G4 S30 ; allow partial nozzle warmup
G28 ; home all axis and restore leveling
G1 Z50 F240
G1 X2.0 Y10 F3000
M104 S235 ; set final nozzle temp
M190 S70 ; wait for bed temp to stabilize
M109 S235 ; wait for nozzle temp to stabilize
G1 Z0.28 F240
G92 E0
G1 X2.0 Y140 E10 F1500 ; prime the nozzle
G1 X2.3 Y140 F5000
G92 E0
G1 X2.3 Y10 E10 F1200 ; prime the nozzle
G92 E0
G21 ; set units to millimeters
G90 ; use absolute coordinates
M83 ; use relative distances for extrusion
; Filament gcode
M107
;LAYER_CHANGE
;Z:0.2
;HEIGHT:0.2
;BEFORE_LAYER_CHANGE
G92 E0
;0.2


G1 E-1 F2400
G1 Z.2 F9000
;AFTER_LAYER_CHANGE
;0.2
G1 X99.866 Y82.635
G1 E1 F2400
;TYPE:Skirt/Brim
;WIDTH:0.42
G1 F1200
G1 X100.945 Y81.472 E.04626
G1 X102.687 Y79.987 E.06675
G1 X104.007 Y79.108 E.04624
G1 X105.14 Y78.487 E.03767
G1 X106.319 Y77.958 E.03768
G1 X107.536 Y77.522 E.0377
G1 X109.762 Y76.988 E.06675
G1 X110.494 Y76.916 E.02145
G1 X115.134 Y76.973 E.13531
G1 X116.695 Y77.305 E.04654
G1 X117.314 Y77.518 E.01909
G1 X121.529 Y79.457 E.13529
G1 X122.821 Y80.395 E.04656
G1 X123.299 Y80.842 E.01908
G1 X126.361 Y84.328 E.1353
G1 X127.16 Y85.71 E.04655
G1 X127.415 Y86.313 E.01909
G1 X128.795 Y90.743 E.1353
G1 X128.962 Y92.331 E.04656
G1 X128.95 Y92.985 E.01907
G1 X128.533 Y96.951 E.11628
G1 X128.286 Y98.021 E.03202
G1 X127.865 Y99.242 E.03766
G1 X110.989 Y140.744 E1.3064
G1 X109.992 Y142.148 E.05021
G1 X108.474 Y142.959 E.05019
G1 X106.753 Y143.007 E.0502
G1 X104.896 Y142.024 E.06127
G1 X102.272 Y139.359 E.10906
G1 X99.784 Y136.345 E.11396
G1 X98.55 Y134.618 E.06189
G1 X96.584 Y131.436 E.10907
G1 X95.592 Y129.56 E.06188
G1 X94.07 Y126.143 E.10908
G1 X93.339 Y124.15 E.0619
G1 X92.29 Y120.56 E.10906
G1 X91.498 Y116.534 E.11965
G1 X91.109 Y112.842 E.10825
G1 X91.029 Y110.72 E.06192
G1 X91.14 Y106.982 E.10905
G1 X91.345 Y104.869 E.0619
G1 X91.64 Y102.856 E.05933
G1 X92.401 Y99.276 E.10672
G1 X93.61 Y95.355 E.11965
G1 X94.304 Y93.557 E.0562
G1 X97.739 Y85.866 E.24562
G1 X98.517 Y84.484 E.04625
G1 X99.831 Y82.683 E.06501
G1 X100.135 Y82.905 F9000
G1 F1200
G1 X101.2 Y81.749 E.04583
G1 X103.135 Y80.129 E.07359
G1 X105.062 Y78.95 E.06587
G1 X106.449 Y78.312 E.04452
G1 X107.638 Y77.885 E.03684
G1 X109.835 Y77.358 E.06588
G1 X110.494 Y77.293 E.01931
G1 X115.068 Y77.344 E.13338
G1 X116.172 Y77.563 E.03282
G1 X117.16 Y77.862 E.0301
G1 X121.318 Y79.77 E.1334
G1 X122.238 Y80.419 E.03283
G1 X123.019 Y81.094 E.0301
G1 X126.042 Y84.528 E.13341
G1 X126.618 Y85.494 E.0328
G1 X127.057 Y86.429 E.03012
G1 X128.421 Y90.796 E.13341
G1 X128.554 Y91.913 E.0328
G1 X128.575 Y92.945 E.0301
G1 X128.158 Y96.912 E.11631
G1 X127.923 Y97.917 E.0301
G1 X127.516 Y99.1 E.03648
G1 X110.64 Y140.602 E1.3064
G1 X109.678 Y141.92 E.04758
G1 X108.211 Y142.634 E.04757
G1 X106.581 Y142.576 E.04756
G1 X105.159 Y141.753 E.04791
G1 X103.877 Y140.509 E.05209
G1 X102.445 Y138.988 E.06092
G1 X99.99 Y135.991 E.11297
G1 X97.893 Y132.915 E.10855
G1 X96.835 Y131.113 E.06093
G1 X95.933 Y129.399 E.05648
G1 X94.418 Y125.997 E.10859
G1 X93.698 Y124.036 E.06091
G1 X92.654 Y120.463 E.10854
G1 X91.872 Y116.487 E.11816
G1 X91.485 Y112.811 E.10778
G1 X91.406 Y110.723 E.06093
G1 X91.517 Y107.002 E.10855
G1 X91.719 Y104.922 E.06094
G1 X92.011 Y102.926 E.05882
G1 X92.768 Y99.363 E.10621
G1 X93.953 Y95.515 E.11741
G1 X94.649 Y93.707 E.05649
G1 X98.081 Y86.025 E.24534
G1 X98.83 Y84.694 E.04453
G1 X100.1 Y82.954 E.06281
;WIPE_START
G1 F7200
G1 X101.2 Y81.749 E-.51666
G1 X102.37 Y80.769 E-.48334
;WIPE_END
G1 X111.376 Y101.52 F9000
G1 E1 F2400
;TYPE:Perimeter
;WIDTH:0.419999
G1 F1200
G1 X110.339 Y101.288 E.03099
G1 X109.958 Y101.233 E.01122
G1 X109.672 Y101.292 E.00852
G1 X109.364 Y101.481 E.01054
G1 X109.183 Y101.708 E.00847
G1 X108.716 Y102.525 E.02744
G1 X108.402 Y102.981 E.01614
G1 X108.101 Y103.381 E.0146
G1 X107.577 Y103.986 E.02334
G1 X106.91 Y104.699 E.02847
G1 X106.782 Y105.01 E.00981
G1 X106.766 Y105.308 E.0087
G1 X106.913 Y105.523 E.00759
G1 X106.759 Y106.506 E.02901
G1 X106.606 Y107.987 E.04341
G1 X106.531 Y109.475 E.04344
G1 X106.535 Y110.964 E.04342
G1 X106.618 Y112.451 E.04343
G1 X106.78 Y113.931 E.04341
G1 X107.011 Y115.351 E.04195
G1 X107.326 Y116.807 E.04344
G1 X107.732 Y118.291 E.04486
G1 X108.202 Y119.704 E.04342
G1 X108.735 Y121.065 E.04262
G1 X109.363 Y122.446 E.04424
G1 X110.026 Y123.722 E.04193
G1 X110.781 Y125.006 E.04343
G1 X111.304 Y125.798 E.02768
G1 X107.073 Y137.422 E.3607
G1 X105.796 Y136.073 E.05417
G1 X104.662 Y134.755 E.0507
G1 X103.589 Y133.388 E.05067
G1 X102.578 Y131.974 E.05069
G1 X101.631 Y130.516 E.0507
G1 X100.75 Y129.017 E.0507
G1 X99.938 Y127.48 E.05069
G1 X99.195 Y125.908 E.0507
G1 X98.524 Y124.304 E.0507
G1 X97.925 Y122.672 E.05069
G1 X97.4 Y121.015 E.05068
G1 X96.95 Y119.336 E.05069
G1 X96.575 Y117.638 E.05071
G1 X96.277 Y115.925 E.0507
G1 X96.057 Y114.201 E.05068
G1 X95.913 Y112.468 E.05071
G1 X95.848 Y110.731 E.05069
G1 X95.86 Y108.993 E.05068
G1 X95.951 Y107.256 E.05072
G1 X96.119 Y105.526 E.05068
G1 X96.364 Y103.805 E.05069
G1 X96.692 Y102.073 E.0514
G1 X97.086 Y100.405 E.04998
G1 X97.56 Y98.732 E.0507
G1 X98.109 Y97.082 E.05071
G1 X98.731 Y95.459 E.05068
G1 X99.425 Y93.865 E.05069
G1 X100.19 Y92.304 E.05069
G1 X101.122 Y90.552 E.05787
G1 X101.388 Y89.619 E.02829
G1 X101.707 Y88.762 E.02666
G1 X102.092 Y87.932 E.02668
G1 X102.541 Y87.134 E.0267
G1 X103.051 Y86.375 E.02666
G1 X103.618 Y85.657 E.02668
G1 X104.241 Y84.986 E.0267
G1 X104.798 Y84.473 E.02208
G1 X105.766 Y83.712 E.0359
G1 X106.51 Y83.229 E.02587
G1 X107.438 Y82.734 E.03067
G1 X108.385 Y82.332 E.03
G1 X109.127 Y82.079 E.02286
G1 X109.984 Y81.856 E.02582
G1 X110.512 Y82.9 E.03411
G1 X111.093 Y84.493 E.04944
G1 X111.243 Y84.688 E.00717
G1 X111.55 Y84.894 E.01078
G1 X111.91 Y84.965 E.0107
G1 X113.066 Y84.964 E.03371
G1 X113.358 Y84.918 E.00862
G1 X113.736 Y84.685 E.01295
G1 X113.964 Y84.309 E.01282
G1 X114.25 Y83.413 E.02743
G1 X114.559 Y82.67 E.02346
G1 X114.863 Y82.083 E.01928
G1 X114.903 Y82.743 E.01928
G1 X114.882 Y83.547 E.02345
G1 X114.78 Y84.482 E.02743
G1 X114.835 Y84.919 E.01284
G1 X114.972 Y85.163 E.00816
G1 X115.26 Y85.41 E.01106
G1 X116.36 Y85.903 E.03515
G1 X116.676 Y85.993 E.00958
G1 X117.115 Y85.934 E.01292
G1 X117.477 Y85.683 E.01284
G1 X118.103 Y84.981 E.02743
G1 X118.687 Y84.428 E.02345
G1 X119.204 Y84.015 E.0193
G1 X118.971 Y84.634 E.01929
G1 X118.626 Y85.361 E.02346
G1 X118.152 Y86.173 E.02742
G1 X118.024 Y86.595 E.01286
G1 X118.05 Y86.874 E.00817
G1 X118.153 Y87.126 E.00794
G1 X119.017 Y88.114 E.03827
G1 X119.269 Y88.325 E.00958
G1 X119.694 Y88.45 E.01292
G1 X120.127 Y88.368 E.01285
;WIDTH:0.465816
G1 X120.425 Y88.259 E.01038
;WIDTH:0.511633
G1 X120.723 Y88.15 E.0115
;WIDTH:0.55745
G1 X122.159 Y87.676 E.06017
G1 X121.868 Y87.97 E.01646
G1 X121.019 Y88.691 E.04432
;WIDTH:0.511633
G1 X120.781 Y88.891 E.01127
;WIDTH:0.465816
G1 X120.544 Y89.09 E.01012
;WIDTH:0.419999
G1 X120.256 Y89.423 E.01284
G1 X120.152 Y89.854 E.01293
G1 X120.198 Y90.146 E.00862
G1 X120.545 Y91.213 E.03272
G1 X120.69 Y91.51 E.00964
G1 X121.028 Y91.797 E.01293
G1 X121.456 Y91.898 E.01282
G1 X122.397 Y91.893 E.02744
G1 X123.199 Y91.957 E.02346
G1 X123.852 Y92.065 E.0193
G1 X123.236 Y92.306 E.01929
G1 X122.465 Y92.536 E.02346
G1 X121.544 Y92.727 E.02743
G1 X121.145 Y92.914 E.01285
G1 X120.874 Y93.265 E.01293
G1 X120.798 Y93.552 E.00866
G1 X120.677 Y94.702 E.03372
G1 X120.692 Y94.997 E.00861
G1 X120.884 Y95.397 E.01294
G1 X121.235 Y95.663 E.01284
G1 X122.096 Y96.042 E.02743
G1 X122.803 Y96.426 E.02346
G1 X123.355 Y96.791 E.0193
G1 X122.694 Y96.76 E.0193
G1 X121.897 Y96.656 E.02344
G1 X120.977 Y96.456 E.02745
G1 X120.537 Y96.466 E.01283
G1 X120.28 Y96.577 E.00816
G1 X120.065 Y96.759 E.00821
G1 X119.43 Y97.831 E.03633
G1 X119.276 Y98.184 E.01123
G1 X119.289 Y98.627 E.01292
G1 X119.501 Y99.013 E.01284
G1 X120.134 Y99.71 E.02745
G1 X120.623 Y100.348 E.02344
G1 X120.979 Y100.905 E.01928
G1 X120.388 Y100.609 E.01927
G1 X119.702 Y100.19 E.02344
G1 X118.943 Y99.633 E.02745
G1 X118.537 Y99.462 E.01285
G1 X118.094 Y99.496 E.01296
G1 X117.831 Y99.63 E.00861
G1 X116.903 Y100.305 E.03346
G1 X116.686 Y100.52 E.00891
G1 X116.518 Y100.93 E.01292
G1 X116.554 Y101.368 E.01281
G1 X116.849 Y102.262 E.02745
G1 X117.036 Y103.044 E.02345
G1 X117.135 Y103.698 E.01929
G1 X116.715 Y103.187 E.01929
G1 X116.259 Y102.525 E.02344
G1 X115.793 Y101.708 E.02743
G1 X115.491 Y101.387 E.01285
G1 X115.074 Y101.238 E.01291
G1 X114.778 Y101.253 E.00864
G1 X113.646 Y101.494 E.03375
G1 X113.371 Y101.6 E.00859
G1 X113.05 Y101.906 E.01293
G1 X112.905 Y102.322 E.01285
G1 X112.811 Y103.258 E.02743
G1 X112.663 Y104.048 E.02344
G1 X112.488 Y104.686 E.01929
G1 X112.312 Y104.048 E.0193
G1 X112.165 Y103.258 E.02343
G1 X112.071 Y102.322 E.02743
G1 X111.926 Y101.906 E.01285
G1 X111.74 Y101.695 E.0082
G1 X111.507 Y101.551 E.00799
G1 X111.434 Y101.534 E.00219
G1 X111.32 Y101.898 F9000
G1 F1200
G1 X111.24 Y101.86 E.00258
G1 X109.975 Y101.61 E.0376
G1 X109.712 Y101.689 E.00801
G1 X109.51 Y101.895 E.00841
G1 X109.036 Y102.726 E.0279
G1 X108.561 Y103.414 E.02438
G1 X108.031 Y104.06 E.02437
G1 X107.298 Y104.813 E.03064
G1 X107.169 Y105.022 E.00716
G1 X107.141 Y105.268 E.00722
G1 X107.301 Y105.486 E.00789
G1 X107.134 Y106.546 E.03129
G1 X106.982 Y108.001 E.04266
G1 X106.908 Y109.469 E.04286
G1 X106.912 Y110.943 E.04298
G1 X106.993 Y112.41 E.04284
G1 X107.152 Y113.87 E.04282
G1 X107.383 Y115.291 E.04198
G1 X107.694 Y116.727 E.04284
G1 X108.09 Y118.172 E.04369
G1 X108.553 Y119.567 E.04286
G1 X109.078 Y120.907 E.04197
G1 X109.697 Y122.272 E.0437
G1 X110.361 Y123.549 E.04197
G1 X111.106 Y124.815 E.04283
G1 X111.723 Y125.748 E.03262
G1 X107.229 Y138.098 E.38322
G1 X106.719 Y137.604 E.0207
G1 X105.516 Y136.325 E.0512
G1 X104.371 Y134.995 E.05117
G1 X103.287 Y133.614 E.05119
G1 X102.266 Y132.186 E.05119
G1 X101.31 Y130.714 E.05118
G1 X100.421 Y129.2 E.0512
G1 X99.601 Y127.648 E.05118
G1 X98.851 Y126.061 E.05118
G1 X98.173 Y124.442 E.05118
G1 X97.568 Y122.794 E.05119
G1 X97.038 Y121.121 E.05117
G1 X96.583 Y119.425 E.0512
G1 X96.205 Y117.711 E.05118
G1 X95.904 Y115.982 E.05117
G1 X95.681 Y114.24 E.05121
G1 X95.537 Y112.491 E.05117
G1 X95.471 Y110.737 E.05118
G1 X95.483 Y108.981 E.05121
G1 X95.574 Y107.228 E.05119
G1 X95.744 Y105.481 E.05118
G1 X95.992 Y103.744 E.05116
G1 X96.323 Y101.995 E.05191
G1 X96.72 Y100.31 E.05048
G1 X97.199 Y98.621 E.05119
G1 X97.753 Y96.955 E.0512
G1 X98.382 Y95.316 E.05119
G1 X99.083 Y93.707 E.05118
G1 X99.855 Y92.131 E.05117
G1 X100.759 Y90.449 E.05568
G1 X101.029 Y89.502 E.02871
G1 X101.359 Y88.616 E.02757
G1 X101.756 Y87.76 E.02751
G1 X102.22 Y86.937 E.02755
G1 X102.746 Y86.152 E.02755
G1 X103.332 Y85.412 E.02752
G1 X103.974 Y84.719 E.02755
G1 X104.669 Y84.079 E.02755
G1 X105.411 Y83.495 E.02753
G1 X106.197 Y82.971 E.02755
G1 X107.022 Y82.511 E.02754
G1 X107.88 Y82.116 E.02754
G1 X108.766 Y81.789 E.02754
G1 X109.649 Y81.541 E.02674
G1 X110.164 Y81.436 E.01533
G1 X110.374 Y81.768 E.01146
G1 X110.758 Y82.511 E.02439
G1 X111.079 Y83.283 E.02438
G1 X111.371 Y84.194 E.0279
G1 X111.462 Y84.368 E.00573
G1 X111.649 Y84.524 E.0071
G1 X111.909 Y84.588 E.00781
G1 X112.617 Y84.587 E.02064
G1 X113.242 Y84.559 E.01824
G1 X113.468 Y84.42 E.00774
G1 X113.605 Y84.194 E.00771
G1 X113.908 Y83.255 E.02877
G1 X114.228 Y82.49 E.02418
G1 X114.809 Y81.439 E.03502
G1 X115.175 Y81.517 E.01091
G1 X115.23 Y81.902 E.01134
G1 X115.28 Y82.736 E.02436
G1 X115.259 Y83.572 E.02438
G1 X115.154 Y84.523 E.0279
G1 X115.188 Y84.785 E.0077
G1 X115.338 Y85.005 E.00776
G1 X115.612 Y85.155 E.00911
G1 X116.715 Y85.618 E.03488
G1 X116.978 Y85.583 E.00774
G1 X117.196 Y85.432 E.00773
G1 X117.854 Y84.698 E.02874
G1 X118.458 Y84.129 E.0242
G1 X119.422 Y83.402 E.03521
G1 X119.722 Y83.613 E.01069
G1 X119.613 Y83.999 E.0117
G1 X119.319 Y84.782 E.02439
G1 X118.96 Y85.537 E.02438
G1 X118.477 Y86.363 E.0279
G1 X118.401 Y86.616 E.0077
G1 X118.449 Y86.878 E.00777
G1 X119.211 Y87.758 E.03394
G1 X119.457 Y87.998 E.01002
G1 X119.712 Y88.073 E.00775
G1 X119.972 Y88.024 E.00771
G1 X120.872 Y87.62 E.02877
G1 X121.656 Y87.346 E.02422
G1 X122.825 Y87.075 E.03499
G1 X123.012 Y87.399 E.01091
G1 X122.763 Y87.698 E.01135
G1 X122.176 Y88.293 E.02437
G1 X121.541 Y88.837 E.02438
G1 X120.764 Y89.396 E.02791
G1 X120.591 Y89.596 E.00771
G1 X120.538 Y89.756 E.00491
G1 X120.556 Y90.03 E.00801
G1 X120.77 Y90.687 E.02015
G1 X120.995 Y91.288 E.01871
G1 X121.198 Y91.46 E.00776
G1 X121.455 Y91.521 E.0077
G1 X122.441 Y91.518 E.02875
G1 X123.268 Y91.586 E.0242
G1 X124.447 Y91.815 E.03502
G1 X124.486 Y92.187 E.01091
G1 X124.137 Y92.358 E.01133
G1 X123.359 Y92.663 E.02437
G1 X122.557 Y92.902 E.0244
G1 X121.62 Y93.096 E.0279
G1 X121.381 Y93.209 E.00771
G1 X121.267 Y93.332 E.00489
G1 X121.173 Y93.591 E.00803
G1 X121.089 Y94.385 E.02328
G1 X121.061 Y94.918 E.01556
G1 X121.176 Y95.158 E.00776
G1 X121.387 Y95.318 E.00772
G1 X122.289 Y95.717 E.02876
G1 X123.017 Y96.116 E.02421
G1 X124.006 Y96.808 E.0352
G1 X123.898 Y97.159 E.01071
G1 X123.496 Y97.174 E.01173
G1 X122.661 Y97.136 E.02437
G1 X121.832 Y97.028 E.02438
G1 X120.897 Y96.825 E.0279
G1 X120.633 Y96.831 E.0077
G1 X120.479 Y96.897 E.00489
G1 X120.355 Y97.001 E.00472
G1 X119.779 Y97.983 E.0332
G1 X119.645 Y98.262 E.00903
G1 X119.653 Y98.528 E.00776
G1 X119.78 Y98.76 E.00771
G1 X120.442 Y99.491 E.02876
G1 X120.945 Y100.151 E.0242
G1 X121.564 Y101.18 E.03502
G1 X121.313 Y101.458 E.01092
G1 X120.952 Y101.314 E.01133
G1 X120.205 Y100.939 E.02437
G1 X119.491 Y100.503 E.02439
G1 X118.72 Y99.937 E.02789
G1 X118.476 Y99.835 E.00771
G1 X118.308 Y99.833 E.0049
G1 X118.053 Y99.935 E.00801
G1 X117.481 Y100.351 E.02062
G1 X116.992 Y100.741 E.01824
G1 X116.891 Y100.987 E.00775
G1 X116.912 Y101.25 E.00769
G1 X117.219 Y102.188 E.02878
G1 X117.41 Y102.995 E.02418
G1 X117.558 Y104.193 E.0352
G1 X117.225 Y104.348 E.01071
G1 X116.945 Y104.06 E.01171
G1 X116.414 Y103.414 E.02438
G1 X115.94 Y102.726 E.02436
G1 X115.465 Y101.895 E.02791
G1 X115.284 Y101.702 E.00772
G1 X115.131 Y101.632 E.00491
G1 X114.856 Y101.622 E.00802
G1 X114.11 Y101.781 E.02224
G1 X113.559 Y101.926 E.01661
G1 X113.367 Y102.11 E.00775
G1 X113.28 Y102.359 E.00769
G1 X113.179 Y103.34 E.02876
G1 X113.025 Y104.156 E.02421
G1 X112.675 Y105.304 E.035
G1 X112.301 Y105.304 E.01091
G1 X112.166 Y104.939 E.01135
G1 X111.944 Y104.133 E.02438
G1 X111.791 Y103.311 E.02438
G1 X111.696 Y102.359 E.0279
G1 X111.609 Y102.11 E.00769
G1 X111.497 Y101.983 E.00494
G1 X111.374 Y101.924 E.00398
G1 X111.168 Y102.231 F9000
;TYPE:External perimeter
G1 F1200
G1 X109.959 Y101.991 E.03594
G1 X109.838 Y102.081 E.0044
G1 X109.355 Y102.926 E.02838
G1 X108.863 Y103.641 E.02531
G1 X108.117 Y104.512 E.03344
G1 X107.556 Y105.09 E.02349
G1 X107.517 Y105.235 E.00438
G1 X107.695 Y105.406 E.0072
G1 X107.509 Y106.583 E.03475
G1 X107.359 Y108.024 E.04225
G1 X107.285 Y109.472 E.04228
G1 X107.288 Y110.919 E.04219
G1 X107.368 Y112.369 E.04235
G1 X107.524 Y113.81 E.04226
G1 X107.755 Y115.23 E.04195
G1 X108.065 Y116.655 E.04252
G1 X108.447 Y118.051 E.0422
G1 X108.904 Y119.429 E.04233
G1 X109.178 Y120.128 E.02189
G1 X109.63 Y121.213 E.03427
G1 X110.032 Y122.098 E.02834
G1 X110.699 Y123.381 E.04217
G1 X111.431 Y124.624 E.04206
G1 X112.143 Y125.699 E.0376
G1 X107.384 Y138.774 E.40573
G1 X106.451 Y137.868 E.03792
G1 X105.236 Y136.578 E.05167
G1 X104.08 Y135.234 E.05169
G1 X102.985 Y133.84 E.05169
