; generated by PrusaSlicer 2.7.1+win64 on 2023-12-30 at 09:40:45 UTC

; 

; external perimeters extrusion width = 0.42mm
; perimeters extrusion width = 0.44mm
; infill extrusion width = 0.44mm
; solid infill extrusion width = 0.44mm
; top infill extrusion width = 0.40mm
; support material extrusion width = 0.36mm
; first layer extrusion width = 0.42mm

M201 X500 Y500 Z100 E5000 ; sets maximum accelerations, mm/sec^2
M203 X500 Y500 Z10 E60 ; sets maximum feedrates, mm / sec
M204 S500 T1000 ; sets acceleration (S) and retract acceleration (R), mm/sec^2
M205 X8.00 Y8.00 Z0.40 E5.00 ; sets the jerk limits, mm/sec
M205 S0 T0 ; sets the minimum extruding and travel feed rate, mm/sec
;TYPE:Custom
G90 ; use absolute coordinates
M83 ; extruder relative mode
M104 S150 ; set temporary nozzle temp to prevent oozing during homing
M140 S70 ; set final bed temp
G4 S30 ; allow partial nozzle warmup
G28 ; home all axis and restore leveling
G1 Z50 F240
G1 X2.0 Y10 F3000
M104 S230 ; set final nozzle temp
M190 S70 ; wait for bed temp to stabilize
M109 S230 ; wait for nozzle temp to stabilize
G1 Z0.28 F240
G92 E0
G1 X2.0 Y140 E10 F1500 ; prime the nozzle
G1 X2.3 Y140 F5000
G92 E0
G1 X2.3 Y10 E10 F1200 ; prime the nozzle
G92 E0
G21 ; set units to millimeters
G90 ; use absolute coordinates
M83 ; use relative distances for extrusion
; Filament gcode
M107
;LAYER_CHANGE
;Z:0.2
;HEIGHT:0.2
;BEFORE_LAYER_CHANGE
G92 E0
;0.2


G1 E-1 F2400
G1 Z.2 F9000
;AFTER_LAYER_CHANGE
;0.2
G1 X91.231 Y93.492
G1 Z.2
G1 E1 F2400
;TYPE:Skirt/Brim
;WIDTH:0.42
G1 F1200
G1 X93.49 Y92.736 E.06946
G1 X126.51 Y92.736 E.96285
G1 X128.186 Y93.13 E.0502
G1 X129.509 Y94.232 E.05021
G1 X130.264 Y96.49 E.06943
G1 X130.264 Y123.51 E.78789
G1 X129.87 Y125.185 E.05018
G1 X128.769 Y126.509 E.05021
G1 X126.51 Y127.264 E.06945
G1 X93.49 Y127.264 E.96285
G1 X91.815 Y126.87 E.05018
G1 X90.491 Y125.769 E.05021
G1 X89.736 Y123.51 E.06945
G1 X89.736 Y96.49 E.78789
G1 X90.13 Y94.815 E.05018
G1 X91.193 Y93.538 E.04845
G1 X91.494 Y93.808 F9000
G1 F1200
G1 X91.597 Y93.694 E.00448
G1 X93.49 Y93.113 E.05774
G1 X126.51 Y93.113 E.96285
G1 X128.093 Y93.507 E.04757
G1 X129.307 Y94.597 E.04757
G1 X129.887 Y96.49 E.05773
G1 X129.887 Y123.51 E.78789
G1 X129.493 Y125.093 E.04757
G1 X128.403 Y126.307 E.04757
G1 X126.51 Y126.887 E.05773
G1 X93.49 Y126.887 E.96285
G1 X91.907 Y126.493 E.04757
G1 X90.693 Y125.403 E.04757
G1 X90.113 Y123.51 E.05773
G1 X90.113 Y96.49 E.78789
G1 X90.507 Y94.907 E.04757
G1 X91.454 Y93.853 E.04132
;WIPE_START
G1 F7200
G1 X91.494 Y93.808 E-.01907
G1 X91.597 Y93.694 E-.04865
G1 X93.49 Y93.113 E-.62705
G1 X94.454 Y93.113 E-.30523
;WIPE_END
G1 X93.8 Y96.8 F9000
G1 E1 F2400
;TYPE:External perimeter
;WIDTH:0.419999
G1 F1200
G1 X126.2 Y96.8 E.94477
G1 X126.2 Y102.861 E.17674
G1 X126.2 Y123.2 E.59307
G1 X93.8 Y123.2 E.94477
G1 X93.8 Y96.86 E.76806
G1 X94.177 Y97.177 F9000
;TYPE:Perimeter
G1 F1200
G1 X125.823 Y97.177 E.92278
G1 X125.823 Y102.861 E.16574
G1 X125.823 Y122.823 E.58208
G1 X94.177 Y122.823 E.92278
G1 X94.177 Y97.237 E.74607
G1 X94.554 Y97.554 F9000
G1 F1200
G1 X125.446 Y97.554 E.90079
G1 X125.446 Y102.861 E.15475
G1 X125.446 Y122.446 E.57109
G1 X94.554 Y122.446 E.90079
G1 X94.554 Y97.614 E.72409
;WIPE_START
G1 F7200
G1 X94.554 Y97.554 E-.019
G1 X97.652 Y97.554 E-.981
;WIPE_END
G1 X120.956 Y109.579 F9000
G1 E1 F2400
;TYPE:External perimeter
;WIDTH:0.422437
G1 F1200
G1 X120.959 Y109.562 E.00051
;WIDTH:0.419999
G1 X121.112 Y109.358 E.00744
G1 X121.487 Y109.134 E.01274
G1 X121.747 Y109.109 E.00762
G1 X122.189 Y109.25 E.01353
G1 X122.499 Y109.595 E.01352
G1 X122.595 Y110.049 E.01353
G1 X122.45 Y110.489 E.01351
G1 X122.103 Y110.799 E.01357
G1 X121.67 Y110.894 E.01293
G1 X121.414 Y110.837 E.00765
G1 X121.112 Y110.641 E.0105
G1 X120.959 Y110.438 E.00741
;WIDTH:0.422437
G1 X120.889 Y109.978 E.01366
G1 X120.946 Y109.638 E.01012
G1 X120.485 Y109.776 F9000
;WIDTH:0.421294
G1 F1200
G1 X120.511 Y110.022 E.00724
G1 X120.441 Y110.438 E.01234
;WIDTH:0.419999
G1 X120.288 Y110.641 E.00741
G1 X119.913 Y110.865 E.01274
G1 X119.653 Y110.891 E.00762
G1 X119.211 Y110.75 E.01353
G1 X118.988 Y110.527 E.0092
G1 X118.884 Y110.341 E.00621
G1 X118.806 Y109.951 E.0116
G1 X118.95 Y109.51 E.01353
G1 X119.297 Y109.201 E.01355
G1 X119.73 Y109.105 E.01293
G1 X119.986 Y109.162 E.00765
G1 X120.342 Y109.412 E.01268
;WIDTH:0.420374
G1 X120.472 Y109.644 E.00776
;WIDTH:0.421294
G1 X120.479 Y109.716 E.00212
;WIPE_START
G1 F7200
G1 X120.485 Y109.776 E-.01909
G1 X120.511 Y110.022 E-.07833
G1 X120.441 Y110.438 E-.13359
;WIPE_END
G1 E-.76899 F2400
G1 X116.654 Y107.821 F9000
G1 E1 F2400
;WIDTH:0.419999
G1 F1200
G1 X116.663 Y107.826 E.0003
G1 X116.933 Y108.019 E.00968
G1 X117.352 Y108.484 E.01825
G1 X117.629 Y108.969 E.01629
G1 X117.807 Y109.532 E.01722
G1 X117.84 Y110.133 E.01755
G1 X117.807 Y110.467 E.00979
G1 X117.629 Y111.03 E.01722
G1 X117.352 Y111.516 E.01631
G1 X116.934 Y111.98 E.01821
G1 X116.535 Y112.26 E.01421
G1 X116.124 Y112.448 E.01318
G1 X115.685 Y112.563 E.01323
G1 X115.233 Y112.599 E.01322
G1 X114.782 Y112.557 E.01321
G1 X114.345 Y112.437 E.01321
G1 X113.936 Y112.243 E.0132
G1 X113.579 Y111.99 E.01276
G1 X113.248 Y111.658 E.01367
G1 X112.908 Y111.108 E.01885
G1 X112.801 Y110.873 E.00753
G1 X112.687 Y110.435 E.0132
G1 X112.65 Y109.982 E.01325
G1 X112.696 Y109.518 E.0136
G1 X112.813 Y109.095 E.0128
G1 X113.007 Y108.686 E.0132
G1 X113.269 Y108.316 E.01322
G1 X113.591 Y107.998 E.0132
G1 X113.964 Y107.74 E.01322
G1 X114.377 Y107.551 E.01324
G1 X114.829 Y107.435 E.01361
G1 X115.266 Y107.4 E.01278
G1 X115.717 Y107.442 E.01321
G1 X116.154 Y107.562 E.01321
G1 X116.601 Y107.793 E.01467
G1 X116.88 Y107.52 F9000
;TYPE:Perimeter
G1 F1200
G1 X117.2 Y107.752 E.01153
G1 X117.561 Y108.125 E.01514
G1 X117.851 Y108.555 E.01512
G1 X118.063 Y109.028 E.01511
G1 X118.189 Y109.532 E.01515
;WIDTH:0.469879
G1 X118.223 Y109.634 E.00355
;WIDTH:0.519759
G1 X118.257 Y109.737 E.004
;WIDTH:0.569639
G1 X118.291 Y109.839 E.00438
;WIDTH:0.619518
G1 X118.325 Y109.942 E.00484
G1 X118.381 Y109.819 E.00603
;WIDTH:0.569639
G1 X118.438 Y109.696 E.00552
;WIDTH:0.519759
G1 X118.495 Y109.574 E.00497
;WIDTH:0.469879
G1 X118.551 Y109.451 E.00446
;WIDTH:0.419999
G1 X118.722 Y109.205 E.00874
G1 X119.043 Y108.905 E.01281
G1 X119.559 Y108.744 E.01576
G1 X119.79 Y108.733 E.00674
G1 X120.106 Y108.801 E.00943
G1 X120.565 Y109.098 E.01594
G1 X120.7 Y109.27 E.00638
G1 X120.907 Y109.042 E.00898
G1 X121.344 Y108.782 E.01483
G1 X121.715 Y108.726 E.01094
G1 X122.326 Y108.886 E.01842
G1 X122.716 Y109.243 E.01542
G1 X122.863 Y109.497 E.00856
G1 X122.978 Y110 E.01505
G1 X122.863 Y110.502 E.01502
G1 X122.716 Y110.757 E.00858
G1 X122.326 Y111.113 E.0154
G1 X121.841 Y111.256 E.01474
G1 X121.51 Y111.251 E.00965
G1 X121.209 Y111.153 E.00923
G1 X120.835 Y110.902 E.01313
G1 X120.7 Y110.73 E.00638
G1 X120.493 Y110.957 E.00896
G1 X120.056 Y111.217 E.01483
G1 X119.676 Y111.273 E.0112
G1 X119.13 Y111.14 E.01639
G1 X118.847 Y110.919 E.01047
G1 X118.684 Y110.757 E.0067
;WIDTH:0.466797
G1 X118.581 Y110.559 E.00732
;WIDTH:0.513594
G1 X118.477 Y110.362 E.00811
;WIDTH:0.560391
G1 X118.374 Y110.164 E.00893
;WIDTH:0.589952
G1 X118.349 Y110.111 E.00248
;WIDTH:0.619512
G1 X118.325 Y110.058 E.00259
G1 X118.286 Y110.185 E.00592
;WIDTH:0.569634
G1 X118.248 Y110.311 E.00536
;WIDTH:0.519756
G1 X118.21 Y110.438 E.00489
;WIDTH:0.469878
G1 X118.172 Y110.565 E.00438
;WIDTH:0.419999
G1 X118.029 Y111.064 E.01514
G1 X117.802 Y111.53 E.01511
G1 X117.508 Y111.936 E.01462
G1 X117.149 Y112.293 E.01476
G1 X116.695 Y112.601 E.016
G1 X116.221 Y112.813 E.01514
G1 X115.718 Y112.938 E.01511
G1 X115.201 Y112.975 E.01511
G1 X114.685 Y112.921 E.01513
G1 X114.186 Y112.779 E.01513
G1 X113.72 Y112.552 E.01511
G1 X113.314 Y112.258 E.01462
G1 X112.948 Y111.887 E.0152
G1 X112.649 Y111.445 E.01556
G1 X112.437 Y110.971 E.01514
G1 X112.311 Y110.468 E.01512
;WIDTH:0.457479
G1 X112.281 Y110.293 E.00569
;WIDTH:0.494959
G1 X112.25 Y110.117 E.00625
;WIDTH:0.532438
G1 X112.219 Y109.942 E.00673
G1 X112.257 Y109.768 E.00674
;WIDTH:0.494959
G1 X112.294 Y109.594 E.00622
;WIDTH:0.457479
G1 X112.332 Y109.42 E.00571
;WIDTH:0.419999
G1 X112.471 Y108.936 E.01468
G1 X112.698 Y108.469 E.01514
G1 X112.997 Y108.055 E.01489
G1 X113.361 Y107.699 E.01485
G1 X113.805 Y107.398 E.01564
G1 X114.282 Y107.186 E.01522
G1 X114.796 Y107.06 E.01543
G1 X115.299 Y107.024 E.0147
G1 X115.815 Y107.078 E.01513
G1 X116.314 Y107.221 E.01514
G1 X116.78 Y107.448 E.01511
G1 X116.832 Y107.485 E.00186
;WIPE_START
G1 F7200
G1 X116.88 Y107.52 E-.01881
G1 X117.2 Y107.752 E-.12516
G1 X117.561 Y108.125 E-.16438
G1 X117.851 Y108.555 E-.16424
G1 X118.063 Y109.028 E-.16414
G1 X118.189 Y109.532 E-.16451
;WIPE_END
G1 E-.19876 F2400
G1 X109.635 Y110.368 F9000
G1 E1 F2400
;TYPE:External perimeter
;WIDTH:0.420167
G1 F1200
G1 X109.629 Y110.355 E.00042
;WIDTH:0.422437
G1 X109.589 Y109.978 E.01113
G1 X109.659 Y109.561 E.01241
;WIDTH:0.419999
G1 X109.812 Y109.358 E.00741
G1 X110.159 Y109.141 E.01193
G1 X110.447 Y109.109 E.00845
G1 X110.889 Y109.25 E.01353
G1 X111.199 Y109.595 E.01352
G1 X111.295 Y110.049 E.01353
G1 X111.15 Y110.489 E.01351
G1 X110.803 Y110.799 E.01357
G1 X110.37 Y110.894 E.01293
G1 X110.114 Y110.837 E.00765
G1 X109.758 Y110.587 E.01268
;WIDTH:0.420167
G1 X109.665 Y110.42 E.00558
G1 X109.115 Y110.472 F9000
;WIDTH:0.419999
G1 F1200
G1 X108.988 Y110.641 E.00616
G1 X108.613 Y110.865 E.01274
G1 X108.353 Y110.891 E.00762
G1 X107.911 Y110.75 E.01353
G1 X107.601 Y110.405 E.01352
G1 X107.506 Y110.049 E.01074
G1 X107.607 Y109.575 E.01413
G1 X107.958 Y109.216 E.01464
G1 X108.43 Y109.105 E.01414
G1 X108.686 Y109.162 E.00765
G1 X109.042 Y109.412 E.01268
;WIDTH:0.420374
G1 X109.172 Y109.644 E.00776
;WIDTH:0.421294
G1 X109.211 Y110.022 E.01112
G1 X109.144 Y110.421 E.01184
G1 X109.251 Y110.894 F9000
;TYPE:Perimeter
;WIDTH:0.419999
G1 F1200
G1 X109.193 Y110.957 E.0025
G1 X108.756 Y111.217 E.01483
G1 X108.334 Y111.27 E.0124
G1 X107.843 Y111.144 E.01478
G1 X107.645 Y111.017 E.00686
G1 X107.281 Y110.616 E.01579
G1 X107.141 Y110.146 E.0143
G1 X107.131 Y109.902 E.00712
G1 X107.281 Y109.383 E.01575
G1 X107.645 Y108.983 E.01577
G1 X107.843 Y108.855 E.00687
G1 X108.334 Y108.729 E.01478
G1 X108.756 Y108.782 E.0124
G1 X109.193 Y109.042 E.01483
G1 X109.4 Y109.27 E.00898
G1 X109.607 Y109.042 E.00898
G1 X110.044 Y108.782 E.01483
G1 X110.468 Y108.73 E.01246
G1 X111.017 Y108.882 E.01661
G1 X111.416 Y109.243 E.01569
G1 X111.563 Y109.497 E.00856
;WIDTH:0.457479
G1 X111.619 Y109.645 E.00507
;WIDTH:0.494959
G1 X111.675 Y109.794 E.00556
;WIDTH:0.532438
G1 X111.732 Y109.942 E.006
G1 X111.692 Y110.155 E.0082
;WIDTH:0.488762
G1 X111.565 Y110.444 E.01088
;WIDTH:0.454381
G1 X111.439 Y110.733 E.01003
;WIDTH:0.419999
G1 X111.056 Y111.096 E.01539
G1 X110.541 Y111.256 E.01573
G1 X110.31 Y111.267 E.00674
G1 X109.994 Y111.199 E.00943
G1 X109.535 Y110.902 E.01594
G1 X109.4 Y110.73 E.00638
G1 X109.291 Y110.849 E.00471
G1 X109.211 Y111.391 F9000
G1 F1200
G1 X108.955 Y111.545 E.00871
G1 X108.548 Y111.639 E.01218
G1 X108.164 Y111.621 E.01121
G1 X107.614 Y111.455 E.01675
G1 X107.379 Y111.284 E.00847
G1 X106.996 Y110.875 E.01634
G1 X106.873 Y110.6 E.00878
G1 X106.777 Y110.244 E.01075
G1 X106.746 Y109.95 E.00862
G1 X106.873 Y109.399 E.01649
G1 X106.996 Y109.125 E.00876
G1 X107.379 Y108.716 E.01634
G1 X107.614 Y108.545 E.00847
G1 X108.164 Y108.379 E.01675
G1 X108.549 Y108.36 E.01124
G1 X108.955 Y108.454 E.01215
G1 X109.4 Y108.723 E.01516
G1 X109.845 Y108.454 E.01516
G1 X110.349 Y108.35 E.01501
G1 X110.636 Y108.379 E.00841
G1 X111.19 Y108.547 E.01688
G1 X111.421 Y108.716 E.00835
G1 X111.72 Y109.015 E.01233
G1 X111.943 Y109.457 E.01444
G1 X112.073 Y108.931 E.0158
G1 X112.307 Y108.395 E.01705
G1 X112.63 Y107.909 E.01702
G1 X113.033 Y107.486 E.01704
G1 X113.503 Y107.139 E.01704
G1 X114.027 Y106.879 E.01706
G1 X114.606 Y106.711 E.01758
G1 X115.168 Y106.649 E.01649
G1 X115.751 Y106.685 E.01703
G1 X116.319 Y106.823 E.01704
G1 X116.854 Y107.056 E.01702
G1 X117.341 Y107.38 E.01706
G1 X117.764 Y107.783 E.01704
G1 X118.111 Y108.253 E.01704
G1 X118.371 Y108.776 E.01703
G1 X118.435 Y108.959 E.00565
G1 X118.842 Y108.586 E.0161
G1 X119.277 Y108.427 E.01351
G1 X119.713 Y108.349 E.01292
G1 X120.172 Y108.423 E.01356
G1 X120.7 Y108.723 E.01771
G1 X121.145 Y108.454 E.01516
G1 X121.551 Y108.36 E.01215
G1 X121.936 Y108.379 E.01124
G1 X122.506 Y108.555 E.0174
G1 X122.982 Y108.976 E.01853
G1 X123.227 Y109.399 E.01425
G1 X123.355 Y110 E.01792
G1 X123.227 Y110.6 E.01789
G1 X122.982 Y111.024 E.01428
G1 X122.506 Y111.444 E.01851
G1 X121.936 Y111.621 E.0174
G1 X121.551 Y111.639 E.01124
G1 X121.145 Y111.545 E.01215
G1 X120.7 Y111.276 E.01516
G1 X120.255 Y111.545 E.01516
G1 X119.749 Y111.65 E.01507
G1 X119.464 Y111.621 E.00835
G1 X118.988 Y111.489 E.0144
G1 X118.679 Y111.284 E.01081
G1 X118.435 Y111.04 E.01006
G1 X118.193 Y111.604 E.0179
G1 X117.878 Y112.079 E.01662
G1 X117.471 Y112.51 E.01729
G1 X116.996 Y112.861 E.01722
G1 X116.473 Y113.121 E.01703
G1 X115.913 Y113.286 E.01702
G1 X115.332 Y113.351 E.01705
G1 X114.749 Y113.314 E.01703
G1 X114.181 Y113.177 E.01704
G1 X113.646 Y112.943 E.01703
G1 X113.171 Y112.628 E.01662
G1 X112.74 Y112.22 E.01731
G1 X112.389 Y111.746 E.0172
G1 X112.129 Y111.223 E.01703
G1 X111.942 Y110.546 E.02048
G1 X111.72 Y110.984 E.01432
G1 X111.329 Y111.364 E.0159
G1 X110.992 Y111.529 E.01094
G1 X110.506 Y111.645 E.01457
G1 X110.02 Y111.601 E.01423
G1 X109.704 Y111.47 E.00997
G1 X109.4 Y111.276 E.01052
G1 X109.263 Y111.359 E.00467
;WIPE_START
G1 F7200
G1 X109.211 Y111.391 E-.01933
G1 X108.955 Y111.545 E-.0946
G1 X108.548 Y111.639 E-.13228
G1 X108.164 Y111.621 E-.12173
G1 X107.614 Y111.455 E-.18193
G1 X107.379 Y111.284 E-.09203
G1 X106.996 Y110.875 E-.17744
G1 X106.873 Y110.6 E-.0954
G1 X106.803 Y110.34 E-.08526
;WIPE_END
G1 X124.556 Y97.675 F9000
G1 E1 F2400
;TYPE:Solid infill
;WIDTH:0.423084
G1 F1200
G1 X125.155 Y98.274 E.0249
G1 X125.155 Y98.811 E.01579
G1 X124.188 Y97.844 E.0402
G1 X123.651 Y97.844 E.01579
G1 X125.155 Y99.349 E.06255
G1 X125.155 Y99.887 E.01582
G1 X123.113 Y97.844 E.08492
G1 X122.575 Y97.844 E.01582
G1 X125.155 Y100.424 E.10726
G1 X125.155 Y100.962 E.01582
G1 X122.038 Y97.844 E.12961
G1 X121.5 Y97.844 E.01582
G1 X125.155 Y101.5 E.15198
G1 X125.155 Y102.037 E.01579
G1 X120.963 Y97.844 E.1743
G1 X120.425 Y97.844 E.01582
G1 X125.155 Y102.575 E.19667
G1 X125.155 Y103.112 E.01579
G1 X119.887 Y97.844 E.21902
G1 X119.35 Y97.844 E.01579
G1 X125.155 Y103.65 E.24136
G1 X125.155 Y104.188 E.01582
G1 X118.812 Y97.844 E.26373
G1 X118.274 Y97.844 E.01582
G1 X125.155 Y104.725 E.28608
G1 X125.155 Y105.263 E.01582
G1 X117.737 Y97.844 E.30842
G1 X117.199 Y97.844 E.01582
G1 X125.155 Y105.801 E.33079
G1 X125.155 Y106.338 E.01579
G1 X116.662 Y97.844 E.35312
G1 X116.124 Y97.844 E.01582
G1 X125.155 Y106.876 E.37549
G1 X125.155 Y107.414 E.01582
G1 X115.586 Y97.844 E.39785
G1 X115.049 Y97.844 E.01579
G1 X125.155 Y107.951 E.42018
G1 X125.156 Y108.489 E.01582
G1 X114.511 Y97.844 E.44257
G1 X113.973 Y97.844 E.01582
G1 X125.156 Y109.027 E.46493
G1 X125.156 Y109.564 E.01579
G1 X113.436 Y97.844 E.48726
G1 X112.898 Y97.844 E.01582
G1 X125.156 Y110.102 E.50963
G1 X125.156 Y110.639 E.01579
G1 X112.361 Y97.845 E.53193
G1 X111.823 Y97.845 E.01582
G1 X122.099 Y108.121 E.42723
G1 X122.371 Y108.191 E.00826
G1 X122.646 Y108.3 E.0087
G1 X122.921 Y108.505 E.01008
G1 X123.197 Y108.779 E.01143
G1 X123.504 Y109.311 E.01806
G1 X123.583 Y109.605 E.00895
G1 X125.156 Y111.177 E.06538
G1 X125.156 Y111.715 E.01582
G1 X123.629 Y110.189 E.06346
G1 X123.522 Y110.619 E.01303
G1 X125.156 Y112.252 E.06791
G1 X125.156 Y112.79 E.01582
G1 X123.339 Y110.974 E.07552
G1 X123.197 Y111.22 E.00835
G1 X123.122 Y111.294 E.0031
G1 X125.156 Y113.328 E.08456
G1 X125.156 Y113.865 E.01579
G1 X122.843 Y111.553 E.09614
G1 X122.646 Y111.7 E.00723
G1 X122.507 Y111.754 E.00438
G1 X125.156 Y114.403 E.11013
G1 X125.156 Y114.941 E.01582
G1 X122.095 Y111.88 E.12726
G1 X121.734 Y111.941 E.01076
G1 X121.611 Y111.933 E.00362
G1 X125.156 Y115.478 E.14738
G1 X125.156 Y116.016 E.01582
G1 X120.838 Y111.698 E.17952
G1 X120.7 Y111.616 E.00472
G1 X120.398 Y111.796 E.01034
